;FLAVOR:RepRap
;TIME:2152
;Filament used: 2.25032m
;Layer height: 0.2
;MINX:75.779
;MINY:70.439
;MINZ:0.3
;MAXX:134.202
;MAXY:139.561
;MAXZ:8.6
;TARGET_MACHINE.NAME:Unknown
;Generated with Cura_SteamEngine 5.8.1
T0
M190 S65
M104 S215
M109 S215
M82 ;absolute extrusion mode
; === JOB START ===
G91                ; relative mode
G0 Z5 F1000        ; move extruder up 5 mm before homing
G28 X0 Y0          ; Home X Y
G90                ; absolute mode
G0 Z5 F1000        ; move up before move
G0 X100 Y0 F2000   ; front center on the table
G28 Z0             ; Home Z
G0 Z0.3 F1000      ; lift nozzle before movement
M117               ; clear any messages on LCD
T0                 ; Activate Extruder 1
; === JOB START ===
M83 ;relative extrusion mode
G1 F12000 E-2
;LAYER_COUNT:40
;LAYER:0
M107
G1 F600 Z0.8
G0 F3600 X78.308 Y73.594 Z0.8
;TYPE:SKIRT
G1 F600 Z0.3
G1 F12000 E2
G1 F1500 X78.881 Y72.99 E0.04569
G1 X79.449 Y72.526 E0.04025
G1 X80.137 Y72.007 E0.0473
G1 X80.776 Y71.643 E0.04036
G1 X81.525 Y71.249 E0.04644
G1 X82.242 Y70.986 E0.04191
G1 X82.813 Y70.796 E0.03303
G1 X83.362 Y70.653 E0.03113
G1 X84.593 Y70.457 E0.06841
G1 X85.367 Y70.439 E0.04249
G1 X85.932 Y70.443 E0.03101
G1 X86.522 Y70.487 E0.03247
G1 X87.742 Y70.699 E0.06796
G1 X88.484 Y70.933 E0.0427
G1 X89.239 Y71.201 E0.04397
G1 X89.886 Y71.525 E0.03971
G1 X90.428 Y71.82 E0.03386
G1 X91.168 Y72.272 E0.04759
G1 X129.179 Y96.488 E2.47337
G1 X129.81 Y96.904 E0.04148
G1 X130.43 Y97.358 E0.04217
G1 X130.875 Y97.71 E0.03114
G1 X131.322 Y98.118 E0.03321
G1 X132.113 Y98.983 E0.06433
G1 X132.593 Y99.675 E0.04622
G1 X133.038 Y100.375 E0.04552
G1 X133.377 Y101.112 E0.04452
G1 X133.691 Y101.853 E0.04417
G1 X133.899 Y102.62 E0.04361
G1 X134.074 Y103.339 E0.04061
G1 X134.164 Y104.202 E0.04762
G1 X134.202 Y104.741 E0.02965
G1 X134.202 Y105.396 E0.03595
G1 X134.078 Y106.635 E0.06834
G1 X133.9 Y107.377 E0.04188
G1 X133.67 Y108.204 E0.04711
G1 X133.361 Y108.926 E0.0431
G1 X133.039 Y109.62 E0.04199
G1 X132.584 Y110.338 E0.04665
G1 X132.155 Y110.962 E0.04156
G1 X131.586 Y111.596 E0.04675
G1 X131.005 Y112.191 E0.04564
G1 X130.379 Y112.683 E0.0437
G1 X129.886 Y113.044 E0.03353
G1 X129.228 Y113.48 E0.04332
G1 X91.132 Y137.749 E2.47887
G1 X90.2 Y138.313 E0.05978
G1 X89.427 Y138.705 E0.04756
G1 X88.917 Y138.925 E0.03048
G1 X87.687 Y139.314 E0.0708
G1 X86.965 Y139.439 E0.04021
G1 X86.125 Y139.555 E0.04654
G1 X85.387 Y139.561 E0.0405
G1 X84.799 Y139.547 E0.03228
G1 X84.182 Y139.491 E0.034
G1 X83.251 Y139.317 E0.05198
G1 X82.621 Y139.154 E0.03571
G1 X81.48 Y138.729 E0.06682
G1 X80.83 Y138.387 E0.04031
G1 X80.095 Y137.966 E0.04648
G1 X79.5 Y137.515 E0.04097
G1 X78.891 Y137.017 E0.04317
G1 X78.328 Y136.43 E0.04464
G1 X77.784 Y135.807 E0.04539
G1 X77.341 Y135.149 E0.04353
G1 X76.923 Y134.474 E0.04357
G1 X76.62 Y133.813 E0.0399
G1 X76.313 Y133.083 E0.04346
G1 X76.092 Y132.27 E0.04624
G1 X75.911 Y131.496 E0.04362
G1 X75.835 Y130.729 E0.0423
G1 X75.789 Y129.978 E0.04129
G1 X75.779 Y129.313 E0.0365
G1 X75.779 Y102.914 E1.44876
G1 X75.804 Y101.135 E0.09764
G1 X75.804 Y98.402 E0.14998
G1 X75.779 Y96.585 E0.09972
G1 X75.779 Y80.726 E0.87033
G1 X75.792 Y79.945 E0.04287
G1 X75.838 Y79.246 E0.03844
G1 X75.92 Y78.457 E0.04353
G1 X76.084 Y77.76 E0.0393
G1 X76.236 Y77.191 E0.03232
G1 X76.446 Y76.579 E0.03551
G1 X76.94 Y75.494 E0.06543
G1 X77.325 Y74.875 E0.04
G1 X77.776 Y74.202 E0.04446
G1 X78.308 Y73.594 E0.04434
G0 F3600 X78.629 Y73.895
G1 F1500 X79.159 Y73.331 E0.04247
G1 X79.716 Y72.876 E0.03947
G1 X80.355 Y72.389 E0.04409
G1 X80.983 Y72.031 E0.03967
G1 X81.677 Y71.662 E0.04314
G1 X82.381 Y71.403 E0.04117
G1 X82.924 Y71.222 E0.03141
G1 X83.473 Y71.079 E0.03113
G1 X84.603 Y70.897 E0.06281
G1 X85.365 Y70.879 E0.04183
G1 X85.901 Y70.882 E0.02942
G1 X86.448 Y70.921 E0.0301
G1 X87.61 Y71.119 E0.06469
G1 X88.339 Y71.348 E0.04193
G1 X89.042 Y71.594 E0.04087
G1 X89.676 Y71.912 E0.03892
G1 X90.199 Y72.196 E0.03266
G1 X90.932 Y72.643 E0.04712
G1 X128.937 Y96.856 E2.47301
G1 X129.55 Y97.259 E0.04026
G1 X130.157 Y97.703 E0.04127
G1 X130.579 Y98.036 E0.0295
G1 X130.997 Y98.415 E0.03096
G1 X131.788 Y99.28 E0.06433
G1 X132.223 Y99.913 E0.04215
G1 X132.638 Y100.559 E0.04214
G1 X132.973 Y101.286 E0.04393
G1 X133.266 Y101.968 E0.04074
G1 X133.471 Y102.724 E0.04299
G1 X133.646 Y103.443 E0.04061
G1 X133.725 Y104.233 E0.04357
G1 X133.763 Y104.772 E0.02965
G1 X133.764 Y105.354 E0.03194
G1 X133.65 Y106.533 E0.065
G1 X133.476 Y107.261 E0.04108
G1 X133.265 Y108.031 E0.04381
G1 X132.962 Y108.741 E0.04236
G1 X132.64 Y109.435 E0.04199
G1 X132.221 Y110.089 E0.04263
G1 X131.792 Y110.713 E0.04156
G1 X131.27 Y111.29 E0.0427
G1 X130.733 Y111.845 E0.04238
G1 X130.118 Y112.328 E0.04292
G1 X129.643 Y112.677 E0.03235
G1 X128.992 Y113.109 E0.04288
G1 X90.904 Y137.373 E2.47835
G1 X90.001 Y137.921 E0.05797
G1 X89.253 Y138.301 E0.04604
G1 X88.743 Y138.521 E0.03048
G1 X87.612 Y138.88 E0.06512
G1 X86.903 Y139.003 E0.03949
G1 X86.121 Y139.115 E0.04335
G1 X85.397 Y139.121 E0.03973
G1 X84.809 Y139.107 E0.03228
G1 X84.263 Y139.058 E0.03008
G1 X83.332 Y138.884 E0.05198
G1 X82.773 Y138.741 E0.03167
G1 X81.685 Y138.34 E0.06363
G1 X81.047 Y138.004 E0.03957
G1 X80.361 Y137.615 E0.04328
G1 X79.779 Y137.174 E0.04007
G1 X79.17 Y136.676 E0.04317
G1 X78.658 Y136.139 E0.04072
G1 X78.149 Y135.561 E0.04227
G1 X77.714 Y134.915 E0.04274
G1 X77.323 Y134.291 E0.04041
G1 X77.026 Y133.642 E0.03917
G1 X76.719 Y132.912 E0.04346
G1 X76.52 Y132.168 E0.04227
G1 X76.349 Y131.452 E0.0404
G1 X76.274 Y130.702 E0.04136
G1 X76.229 Y129.971 E0.04019
G1 X76.219 Y129.306 E0.0365
G1 X76.219 Y102.92 E1.44804
G1 X76.244 Y101.141 E0.09764
G1 X76.244 Y98.402 E0.15031
G1 X76.219 Y96.579 E0.10005
G1 X76.219 Y80.733 E0.86962
G1 X76.231 Y79.974 E0.04166
G1 X76.276 Y79.289 E0.03767
G1 X76.348 Y78.558 E0.04031
G1 X76.509 Y77.874 E0.03856
G1 X76.661 Y77.305 E0.03232
G1 X76.847 Y76.76 E0.0316
G1 X77.314 Y75.726 E0.06226
G1 X77.691 Y75.12 E0.03917
G1 X78.142 Y74.447 E0.04446
G1 X78.629 Y73.895 E0.0404
G1 F12000 E-2
;MESH:pokrov 2 v67.stl
G0 F3600 X81.026 Y76.662
G0 X81.589 Y80.923
G0 X81.861 Y81.731
G0 X82.302 Y82.463
G0 X82.888 Y83.081
G0 X86.172 Y84.622
;TYPE:WALL-INNER
G1 F12000 E2
G1 F1500 X85.172 Y84.67 E0.05494
G1 X84.211 Y84.516 E0.05341
G1 X83.285 Y84.148 E0.05468
G1 X82.451 Y83.585 E0.05522
G1 X81.769 Y82.86 E0.05462
G1 X81.251 Y82.002 E0.055
G1 F1520.7 X80.952 Y81.088 E0.05206
G1 F1658.3 X80.872 Y80.105 E0.04896
G1 F1803.3 X80.961 Y79.154 E0.0436
G1 F1808.2 X81.314 Y78.101 E0.05056
G1 F1793.5 X81.802 Y77.309 E0.0427
G1 X82.436 Y76.63 E0.04264
G1 F1769.4 X82.93 Y76.28 E0.02817
G1 X83.369 Y76.004 E0.02412
G1 F1793.5 X84.231 Y75.668 E0.04246
G1 F1788.6 X85.179 Y75.512 E0.04422
G1 F1803.3 X86.253 Y75.577 E0.04912
G1 F1793.5 X87.155 Y75.84 E0.04312
G1 F1709.8 X88.002 Y76.29 E0.04618
G1 F1578.9 X88.779 Y76.904 E0.05163
G1 F1506.8 X89.383 Y77.694 E0.05433
G1 F1500 X89.805 Y78.606 E0.05515
G1 X90.016 Y79.577 E0.05453
G1 X90.016 Y80.574 E0.05471
G1 X89.805 Y81.548 E0.05469
G1 X89.377 Y82.461 E0.05534
G1 X88.779 Y83.245 E0.05411
G1 X88.019 Y83.889 E0.05467
G1 X87.141 Y84.354 E0.05452
G1 X86.172 Y84.622 E0.05517
G0 F3600 X87.553 Y83.852
G0 X88.612 Y83.126
G0 X88.457 Y82.942
G1 F1500 X87.772 Y83.521 E0.04922
G1 X86.98 Y83.942 E0.04922
G1 X86.105 Y84.185 E0.04984
G1 X85.228 Y84.228 E0.04819
G1 X84.329 Y84.089 E0.04992
G1 X83.491 Y83.756 E0.04949
G1 X82.743 Y83.252 E0.0495
G1 X82.124 Y82.595 E0.04954
G1 X81.658 Y81.824 E0.04944
G1 X81.372 Y80.974 E0.04922
G1 X81.276 Y80.094 E0.04858
G1 X81.37 Y79.19 E0.04988
G1 X81.654 Y78.342 E0.04908
G1 X82.126 Y77.55 E0.0506
G1 X82.762 Y76.89 E0.0503
G1 X83.484 Y76.404 E0.04776
G1 X84.318 Y76.061 E0.04949
G1 X85.204 Y75.918 E0.04925
G1 X86.107 Y75.967 E0.04963
G1 X86.988 Y76.209 E0.05014
G1 X87.755 Y76.618 E0.0477
G1 X88.46 Y77.207 E0.05042
G1 X89.007 Y77.927 E0.04962
G1 X89.385 Y78.744 E0.0494
G1 X89.576 Y79.624 E0.04942
G1 X89.576 Y80.527 E0.04956
G1 X89.387 Y81.403 E0.04918
G1 X89.002 Y82.228 E0.04996
G1 X88.457 Y82.942 E0.04929
G1 F12000 E-2
G0 F3600 X88.612 Y83.126
G0 X90.617 Y80.448
G0 X90.265 Y78.145
G0 X104.178 Y86.927
G0 X95.927 Y84.726
G1 F12000 E2
G1 F1500 X96.285 Y84.595 E0.02092
G1 X96.709 Y84.557 E0.02336
G1 X97.159 Y84.648 E0.0252
G1 X105.926 Y87.838 E0.51199
G1 X89.814 Y77.575 E1.04836
G1 X90.224 Y78.462 E0.05363
G1 X90.456 Y79.529 E0.05992
G1 X90.456 Y80.621 E0.05993
G1 X90.262 Y81.518 E0.05036
G1 X90.157 Y81.834 E0.01827
G1 X89.753 Y82.695 E0.05219
G1 X89.101 Y83.548 E0.05892
G1 X88.266 Y84.256 E0.06008
G1 X87.302 Y84.766 E0.05985
G1 X86.239 Y85.059 E0.06051
G1 X85.138 Y85.111 E0.06049
G1 X84.095 Y84.943 E0.05798
G1 X83.079 Y84.54 E0.05998
G1 X82.31 Y84.021 E0.05091
G1 X82.05 Y83.8 E0.01873
G1 X81.417 Y83.128 E0.05066
G1 X80.979 Y82.4 E0.04663
G1 X80.977 Y95.191 E0.70196
G1 X81.724 Y95.22 E0.04103
G1 X82.729 Y95.506 E0.05734
G1 X83.68 Y96.028 E0.05954
G1 X84.467 Y96.762 E0.05906
G1 X85.068 Y97.656 E0.05912
G1 X85.436 Y98.647 E0.05801
G1 X85.563 Y99.719 E0.05924
G1 X85.435 Y100.785 E0.05892
G1 X85.067 Y101.782 E0.05832
G1 X84.472 Y102.67 E0.05866
G1 X83.694 Y103.394 E0.05832
G1 X82.904 Y103.835 E0.04965
G1 X82.575 Y103.97 E0.01952
G1 X81.895 Y104.162 E0.03878
G1 X81.537 Y104.219 E0.01989
G1 X80.976 Y104.241 E0.03081
G1 X80.976 Y127.599 E1.28187
G1 X81.417 Y126.869 E0.0468
G1 X82.168 Y126.076 E0.05994
G1 X82.932 Y125.555 E0.05075
G1 X83.23 Y125.397 E0.01851
G1 X84.085 Y125.057 E0.0505
G1 X85.176 Y124.882 E0.06064
G1 X86.254 Y124.938 E0.05924
G1 X87.286 Y125.226 E0.0588
G1 X88.248 Y125.729 E0.05958
G1 X89.102 Y126.453 E0.06144
G1 X89.771 Y127.337 E0.06084
G1 X90.154 Y128.161 E0.04987
G1 X90.262 Y128.48 E0.01848
G1 X90.456 Y129.372 E0.0501
G1 X90.456 Y130.466 E0.06004
G1 X90.262 Y131.363 E0.05036
G1 X90.155 Y131.683 E0.01852
G1 X89.812 Y132.422 E0.04471
G1 X125.009 Y110.001 E2.2902
G1 X124.288 Y110.039 E0.03962
G1 X123.209 Y109.866 E0.05997
G1 X122.198 Y109.463 E0.05973
G1 X121.29 Y108.85 E0.06012
G1 X120.553 Y108.064 E0.05913
G1 X119.986 Y107.143 E0.05935
G1 X119.628 Y106.091 E0.06098
G1 X119.511 Y104.995 E0.06049
G1 X119.632 Y103.9 E0.06046
G1 X119.972 Y102.881 E0.05895
G1 X120.543 Y101.942 E0.06031
G1 X121.17 Y101.276 E0.0502
G1 X121.43 Y101.055 E0.01873
G1 X122.195 Y100.539 E0.05064
G1 X123.048 Y100.195 E0.05048
G1 X123.38 Y100.103 E0.01891
G1 X124.294 Y99.956 E0.0508
G1 X125.007 Y99.995 E0.03919
G1 X111.001 Y91.072 E0.91137
G1 X111 Y91.323 E0.01377
G1 X107.825 Y100.044 E0.50933
G1 X107.52 Y100.534 E0.03167
G1 X107.217 Y100.786 E0.02163
G1 X106.704 Y100.996 E0.03042
G1 X106.432 Y101.028 E0.01503
G1 X106.14 Y101.008 E0.01606
G1 X105.826 Y100.924 E0.01784
G1 X92.941 Y96.236 E0.75247
G1 X92.642 Y96.089 E0.01828
G1 X92.408 Y95.907 E0.01627
G1 X92.201 Y95.664 E0.01752
G1 X91.974 Y95.165 E0.03009
G1 X91.928 Y94.771 E0.02177
G1 X91.994 Y94.34 E0.02393
G1 X92.36 Y93.329 E0.05901
G1 X91.629 Y93.63 E0.04338
G1 X90.57 Y93.771 E0.05863
G1 X89.508 Y93.626 E0.05882
G1 X88.537 Y93.222 E0.05772
G1 X87.71 Y92.585 E0.05729
G1 X87.071 Y91.756 E0.05744
G1 X86.654 Y90.766 E0.05895
G1 X86.524 Y89.721 E0.05779
G1 X86.653 Y88.669 E0.05817
G1 X87.078 Y87.67 E0.05958
G1 X87.717 Y86.844 E0.05731
G1 X88.53 Y86.224 E0.05611
G1 X89.395 Y85.858 E0.05155
G1 X89.728 Y85.777 E0.01881
G1 X90.581 Y85.667 E0.0472
G1 X91.632 Y85.807 E0.05819
G1 X92.597 Y86.209 E0.05737
G1 X93.279 Y86.729 E0.04707
G1 X93.563 Y87.014 E0.02208
G1 X93.959 Y87.529 E0.03565
G1 X94.257 Y88.115 E0.03608
G1 X95.235 Y85.431 E0.15677
G1 X95.444 Y85.115 E0.02079
G1 X95.648 Y84.911 E0.01583
G1 X95.927 Y84.726 E0.01837
G1 F12000 E-2
G0 F3600 X92.409 Y95.283
G0 X92.784 Y95.651
G1 F12000 E2
G1 F1500 X92.563 Y95.414 E0.01778
G1 X92.401 Y95.058 E0.02146
G1 X92.368 Y94.776 E0.01558
G1 X92.415 Y94.468 E0.0171
G1 X93.294 Y92.047 E0.14135
G1 X93.015 Y92.354 E0.02277
G1 X92.498 Y92.754 E0.03587
G1 X92.242 Y92.902 E0.01623
G1 X91.513 Y93.202 E0.04326
G1 X90.571 Y93.326 E0.05214
G1 X89.624 Y93.199 E0.05244
G1 X88.758 Y92.838 E0.05149
G1 X88.012 Y92.257 E0.05189
G1 X87.452 Y91.53 E0.05036
G1 X87.085 Y90.657 E0.05197
G1 X86.967 Y89.722 E0.05172
G1 X87.083 Y88.78 E0.05209
G1 X87.458 Y87.898 E0.0526
G1 X88.024 Y87.163 E0.05091
G1 X88.751 Y86.606 E0.05026
G1 X89.641 Y86.232 E0.05298
G1 X90.578 Y86.111 E0.05185
G1 X91.518 Y86.235 E0.05203
G1 X92.397 Y86.609 E0.05242
G1 X93.011 Y87.078 E0.0424
G1 X93.214 Y87.282 E0.01579
G1 X93.692 Y87.904 E0.04305
G1 X94.004 Y88.648 E0.04427
G1 X94.08 Y88.93 E0.01603
G1 X94.172 Y89.639 E0.03924
G1 X95.633 Y85.622 E0.23458
G1 X95.783 Y85.395 E0.01493
G1 X96.128 Y85.117 E0.02432
G1 X96.384 Y85.024 E0.01495
G1 X96.687 Y84.997 E0.01669
G1 X97.009 Y85.062 E0.01803
G1 X109.55 Y89.625 E0.73238
G1 F1506.8 X99.265 Y83.071 E0.66625
G1 F1527.8 X88.98 Y76.517 E0.65712
G1 F1650 X88.122 Y75.936 E0.0517
G1 F1788.6 X87.37 Y75.54 E0.03912
G1 F1774.2 X86.594 Y75.285 E0.0379
G1 F1755.3 X85.804 Y75.161 E0.0375
G1 F1764.7 X84.975 Y75.168 E0.03867
G1 F1788.6 X84.194 Y75.305 E0.03649
G1 F1774.2 X83.43 Y75.575 E0.0376
G1 F1746 X82.72 Y75.964 E0.03817
G1 X82.122 Y76.42 E0.03546
G1 F1774.2 X81.541 Y77.054 E0.0399
G1 X81.092 Y77.747 E0.03831
G1 F1755.3 X80.779 Y78.474 E0.03712
G1 X80.573 Y79.276 E0.03883
G1 F1774.2 X80.504 Y80.109 E0.03878
G1 F1650 X80.536 Y81.249 E0.0569
G1 F1513.8 X80.537 Y95.648 E0.78302
G1 F1500 X80.812 Y95.624 E0.01515
G1 X81.653 Y95.658 E0.04619
G1 X82.568 Y95.917 E0.05219
G1 X83.424 Y96.389 E0.05364
G1 X84.137 Y97.06 E0.05373
G1 X84.671 Y97.852 E0.05242
G1 X84.996 Y98.727 E0.05122
G1 X85.121 Y99.719 E0.05487
G1 X84.996 Y100.702 E0.05438
G1 X84.666 Y101.592 E0.05209
G1 X84.113 Y102.403 E0.05387
G1 X83.403 Y103.055 E0.0529
G1 X82.577 Y103.513 E0.05183
G1 X81.652 Y103.774 E0.05275
G1 X80.812 Y103.807 E0.04613
G1 X80.537 Y103.784 E0.01514
G1 F1513.8 X80.532 Y128.753 E1.35782
G1 F1641.8 X80.501 Y129.888 E0.05693
G1 F1764.7 X80.58 Y130.794 E0.04242
G1 F1746 X80.778 Y131.522 E0.03557
G1 F1750.7 X81.093 Y132.25 E0.0373
G1 F1774.2 X81.538 Y132.944 E0.03825
G1 F1769.4 X82.119 Y133.577 E0.03997
G1 F1746 X82.718 Y134.032 E0.03546
G1 F1755.3 X83.432 Y134.421 E0.03813
G1 F1779 X84.195 Y134.694 E0.0375
G1 F1783.8 X84.989 Y134.831 E0.03718
G1 F1764.7 X85.806 Y134.835 E0.03811
G1 F1746 X86.594 Y134.713 E0.03759
G1 F1764.7 X87.368 Y134.458 E0.03801
G1 F1783.8 X88.135 Y134.054 E0.04001
G1 F1650 X88.94 Y133.506 E0.04858
G1 F1520.7 X89.815 Y132.941 E0.05638
G1 F1500 X125.411 Y110.265 E2.31619
G1 F1520.7 X126.323 Y109.692 E0.0583
G1 F1637.7 X127.247 Y109.136 E0.0542
G1 F1746 X127.857 Y108.659 E0.03651
G1 X128.425 Y108.051 E0.03923
G1 F1755.3 X128.855 Y107.422 E0.03573
G1 F1774.2 X129.215 Y106.624 E0.04062
G1 F1779 X129.42 Y105.813 E0.03871
G1 F1755.3 X129.487 Y105 E0.03826
G1 X129.438 Y104.257 E0.03492
G1 F1774.2 X129.215 Y103.371 E0.04239
G1 X128.855 Y102.572 E0.04066
G1 F1755.3 X128.426 Y101.946 E0.03559
G1 F1750.7 X127.857 Y101.34 E0.03909
G1 F1755.3 X127.248 Y100.862 E0.03631
G1 F1617.6 X125.679 Y99.903 E0.09358
G1 F1500 X110.358 Y90.139 E0.99703
G1 X110.59 Y90.43 E0.02042
G1 X110.586 Y91.173 E0.04078
G1 X107.415 Y99.885 E0.50879
G1 X107.197 Y100.235 E0.02263
G1 X106.981 Y100.415 E0.01543
G1 X106.614 Y100.565 E0.02176
G1 X106.157 Y100.575 E0.02509
G1 X93.091 Y95.822 E0.76302
G1 X92.784 Y95.651 E0.01929
G1 F12000 E-2
G0 F3600 X106.885 Y100.552
G0 X111.165 Y91.385
G0 X124.267 Y99.724
G0 X119.835 Y102.796
G0 X120.318 Y105.933
G0 X120.618 Y106.824
G0 X121.104 Y107.629
G0 X121.749 Y108.311
G0 X122.528 Y108.838
G0 X123.4 Y109.185
G0 X124.326 Y109.338
G0 X125.264 Y109.287
G0 X126.168 Y109.036
G0 X129.375 Y106.675
G0 X129.598 Y106.758
G1 F12000 E2
G1 F1500 X129.822 Y105.881 E0.04967
G1 X129.897 Y105 E0.04852
G1 X129.822 Y104.118 E0.04858
G1 X129.598 Y103.238 E0.04983
G1 X129.239 Y102.435 E0.04827
G1 X128.748 Y101.691 E0.04892
G1 X128.131 Y101.036 E0.04938
G1 X127.401 Y100.478 E0.05043
G1 X110.928 Y89.981 E1.07197
G1 F1375 X110.213 Y89.632 E0.04763
G1 F1284 X108.266 Y88.375 E0.14857
G1 F1317.4 X106.319 Y87.117 E0.14485
G1 F1355.2 X104.372 Y85.859 E0.1408
G1 F1392.4 X102.425 Y84.601 E0.13704
G1 F1434.8 X100.478 Y83.344 E0.13296
G1 F1476.5 X98.531 Y82.086 E0.12924
G1 F1500 X88.332 Y75.588 E0.66366
