;FLAVOR:RepRap
;TIME:5585
;Filament used: 6.62666m
;Layer height: 0.2
;MINX:49.02
;MINY:49.848
;MINZ:0.3
;MAXX:160.975
;MAXY:153.208
;MAXZ:8.2
;TARGET_MACHINE.NAME:Unknown
;Generated with Cura_SteamEngine 5.8.1
T0
M190 S65
M104 S215
M109 S215
M82 ;absolute extrusion mode
; === JOB START ===
G91                ; relative mode
G0 Z5 F1000        ; move extruder up 5 mm before homing
G28 X0 Y0          ; Home X Y
G90                ; absolute mode
G0 Z5 F1000        ; move up before move
G0 X100 Y0 F2000   ; front center on the table
G28 Z0             ; Home Z
G0 Z0.3 F1000      ; lift nozzle before movement
M117               ; clear any messages on LCD
T0                 ; Activate Extruder 1
; === JOB START ===
M83 ;relative extrusion mode
G1 F12000 E-2
;LAYER_COUNT:38
;LAYER:0
M107
G1 F600 Z0.8
G0 F3600 X50.074 Y51.225 Z0.8
;TYPE:SKIRT
G1 F600 Z0.3
G1 F12000 E2
G1 F1500 X50.863 Y50.576 E0.05607
G1 X51.682 Y50.133 E0.0511
G1 X52.692 Y49.848 E0.05759
G1 X72.506 Y49.848 E1.08738
G1 X73.638 Y50.059 E0.06319
G1 X155.137 Y93.917 E5.0791
G1 X156.275 Y94.665 E0.07474
G1 X157.729 Y95.952 E0.10656
G1 X158.885 Y97.354 E0.09972
G1 X159.52 Y98.374 E0.06594
G1 X160.315 Y100.156 E0.10709
G1 X160.752 Y101.76 E0.09123
G1 X160.975 Y103.809 E0.11311
G1 X160.896 Y105.384 E0.08654
G1 X160.606 Y106.941 E0.08692
G1 X160.096 Y108.469 E0.0884
G1 X159.134 Y110.321 E0.11453
G1 X158.233 Y111.544 E0.08336
G1 X156.983 Y112.815 E0.09783
G1 X155.539 Y113.897 E0.09902
G1 X154.575 Y114.445 E0.06085
G1 X73.682 Y152.95 E4.91661
G1 X72.547 Y153.208 E0.06388
G1 X52.904 Y153.208 E1.07799
G1 X51.598 Y152.91 E0.07351
G1 X50.397 Y152.154 E0.07788
G1 X49.748 Y151.365 E0.05607
G1 X49.305 Y150.546 E0.0511
G1 X49.02 Y149.536 E0.05759
G1 X49.02 Y53.734 E5.25754
G1 X49.318 Y52.426 E0.07362
G1 X50.074 Y51.225 E0.07788
G0 F3600 X50.409 Y51.519
G1 F1500 X51.11 Y50.943 E0.04979
G1 X51.849 Y50.543 E0.04612
G1 X52.752 Y50.288 E0.05149
G1 X72.463 Y50.288 E1.08172
G1 X73.492 Y50.48 E0.05745
G1 X154.895 Y94.285 E5.07309
G1 X156.033 Y95.033 E0.07474
G1 X157.39 Y96.233 E0.09941
G1 X158.511 Y97.587 E0.09647
G1 X159.146 Y98.607 E0.06594
G1 X159.89 Y100.272 E0.10008
G1 X160.327 Y101.876 E0.09123
G1 X160.535 Y103.788 E0.10555
G1 X160.463 Y105.303 E0.08324
G1 X160.173 Y106.86 E0.08692
G1 X159.679 Y108.329 E0.08505
G1 X158.779 Y110.061 E0.10712
G1 X157.918 Y111.236 E0.07994
G1 X156.718 Y112.463 E0.09419
G1 X155.322 Y113.514 E0.0959
G1 X154.358 Y114.062 E0.06085
G1 X73.538 Y152.532 E4.91217
G1 X72.498 Y152.768 E0.05853
G1 X52.954 Y152.768 E1.07256
G1 X51.769 Y152.498 E0.0667
G1 X50.691 Y151.819 E0.06992
G1 X50.115 Y151.118 E0.04979
G1 X49.715 Y150.379 E0.04612
G1 X49.46 Y149.476 E0.05149
G1 X49.46 Y53.784 E5.2515
G1 X49.73 Y52.597 E0.06681
G1 X50.409 Y51.519 E0.06992
G0 F3600 X50.744 Y51.813
G1 F1500 X51.356 Y51.31 E0.04347
G1 X52.016 Y50.953 E0.04118
G1 X52.812 Y50.728 E0.0454
G1 X72.42 Y50.728 E1.07607
G1 X73.347 Y50.901 E0.05175
G1 X154.653 Y94.653 E5.06702
G1 X155.791 Y95.401 E0.07474
G1 X157.098 Y96.562 E0.09594
G1 X158.137 Y97.82 E0.08954
G1 X158.772 Y98.84 E0.06594
G1 X159.465 Y100.388 E0.09308
G1 X159.902 Y101.992 E0.09123
G1 X160.095 Y103.768 E0.09804
G1 X160.03 Y105.222 E0.07987
G1 X159.74 Y106.779 E0.08692
G1 X159.288 Y108.127 E0.07803
G1 X158.423 Y109.802 E0.10346
G1 X157.603 Y110.928 E0.07644
G1 X156.403 Y112.155 E0.09419
G1 X155.105 Y113.131 E0.08912
G1 X154.141 Y113.679 E0.06085
G1 X73.394 Y152.113 E4.9077
G1 X72.448 Y152.328 E0.05324
G1 X53.004 Y152.328 E1.06707
G1 X51.94 Y152.086 E0.05988
G1 X50.985 Y151.484 E0.06195
G1 X50.482 Y150.872 E0.04347
G1 X50.125 Y150.212 E0.04118
G1 X49.9 Y149.416 E0.0454
G1 X49.9 Y53.833 E5.24552
G1 X50.142 Y52.768 E0.05994
G1 X50.744 Y51.813 E0.06195
G0 F3600 X51.077 Y52.108
G1 F1500 X51.602 Y51.677 E0.03728
G1 X52.183 Y51.363 E0.03624
G1 X52.872 Y51.168 E0.0393
G1 X72.382 Y51.168 E1.07069
G1 X73.2 Y51.321 E0.04567
G1 X154.411 Y95.021 E5.06108
G1 X155.549 Y95.769 E0.07474
G1 X156.759 Y96.843 E0.08879
G1 X157.763 Y98.053 E0.08629
G1 X158.398 Y99.073 E0.06594
G1 X159.04 Y100.504 E0.08607
G1 X159.477 Y102.108 E0.09123
G1 X159.655 Y103.75 E0.09064
G1 X159.597 Y105.141 E0.0764
G1 X159.307 Y106.698 E0.08692
G1 X158.897 Y107.926 E0.07105
G1 X158.066 Y109.544 E0.09982
G1 X157.288 Y110.62 E0.07287
G1 X156.088 Y111.847 E0.09419
G1 X154.888 Y112.748 E0.08235
G1 X153.924 Y113.296 E0.06085
G1 X73.25 Y151.694 E4.90324
G1 X72.398 Y151.888 E0.04795
G1 X53.054 Y151.888 E1.06158
G1 X52.109 Y151.673 E0.05319
G1 X51.28 Y151.151 E0.05376
G1 X50.849 Y150.626 E0.03728
G1 X50.535 Y150.045 E0.03624
G1 X50.34 Y149.356 E0.0393
G1 X50.34 Y53.883 E5.23948
G1 X50.555 Y52.937 E0.05324
G1 X51.077 Y52.108 E0.05376
G0 F3600 X51.412 Y52.402
G1 F1500 X51.848 Y52.044 E0.03096
G1 X52.35 Y51.773 E0.03131
G1 X52.932 Y51.608 E0.0332
G1 X72.338 Y51.608 E1.06499
G1 X73.055 Y51.742 E0.04003
G1 X154.169 Y95.389 E5.05501
G1 X155.307 Y96.137 E0.07474
G1 X156.421 Y97.125 E0.08172
G1 X157.389 Y98.286 E0.08296
G1 X158.024 Y99.306 E0.06594
G1 X158.615 Y100.62 E0.07907
G1 X159.052 Y102.224 E0.09123
G1 X159.215 Y103.733 E0.08329
G1 X159.164 Y105.06 E0.07288
G1 X158.874 Y106.617 E0.08692
G1 X158.48 Y107.785 E0.06765
G1 X157.709 Y109.286 E0.09261
G1 X156.931 Y110.362 E0.07287
G1 X155.823 Y111.496 E0.08701
G1 X154.671 Y112.365 E0.07919
G1 X153.707 Y112.913 E0.06085
G1 X73.106 Y151.276 E4.89879
G1 X72.349 Y151.448 E0.0426
G1 X53.103 Y151.448 E1.05621
G1 X52.28 Y151.261 E0.04632
G1 X51.574 Y150.816 E0.0458
G1 X51.216 Y150.38 E0.03096
G1 X50.945 Y149.878 E0.03131
G1 X50.78 Y149.296 E0.0332
G1 X50.78 Y53.932 E5.2335
G1 X50.967 Y53.108 E0.04637
G1 X51.412 Y52.402 E0.0458
G0 F3600 X51.746 Y52.697
G1 F1500 X51.379 Y53.279 E0.03776
G1 X51.22 Y53.98 E0.03945
G1 X51.22 Y149.236 E5.22758
G1 X51.368 Y149.758 E0.02978
G1 X51.598 Y150.162 E0.02551
G1 X51.869 Y150.482 E0.02301
G1 X52.451 Y150.849 E0.03776
G1 X53.152 Y151.008 E0.03945
G1 X72.3 Y151.008 E1.05083
G1 X72.962 Y150.858 E0.03725
G1 X153.49 Y112.53 E4.89435
G1 X154.454 Y111.982 E0.06085
G1 X155.557 Y111.145 E0.07599
G1 X156.574 Y110.104 E0.07987
G1 X157.352 Y109.028 E0.07287
G1 X158.063 Y107.644 E0.08539
G1 X158.457 Y106.476 E0.06765
G1 X158.731 Y104.981 E0.08341
G1 X158.775 Y103.718 E0.06935
G1 X158.627 Y102.34 E0.07606
G1 X158.19 Y100.736 E0.09123
G1 X157.65 Y99.539 E0.07207
G1 X157.015 Y98.519 E0.06594
G1 X156.084 Y97.408 E0.07955
G1 X155.065 Y96.505 E0.07472
G1 X153.927 Y95.757 E0.07474
G1 X72.91 Y52.163 E5.04895
G1 X72.294 Y52.048 E0.03439
G1 X52.992 Y52.048 E1.05928
G1 X52.47 Y52.196 E0.02978
G1 X52.066 Y52.426 E0.02551
G1 X51.746 Y52.697 E0.02301
G0 F3600 X52.082 Y52.989
G1 F1500 X52.293 Y52.803 E0.01544
G1 X52.607 Y52.614 E0.02011
G1 X52.992 Y52.488 E0.02223
G1 X72.256 Y52.488 E1.05719
G1 X72.762 Y52.583 E0.02825
G1 X153.687 Y96.126 E5.04317
G1 X154.773 Y96.834 E0.07115
G1 X155.792 Y97.737 E0.07472
G1 X156.641 Y98.752 E0.07262
G1 X157.276 Y99.772 E0.06594
G1 X157.788 Y100.916 E0.06878
G1 X158.19 Y102.388 E0.08374
G1 X158.335 Y103.704 E0.07266
G1 X158.298 Y104.903 E0.06583
G1 X158.04 Y106.335 E0.07985
G1 X157.646 Y107.503 E0.06765
G1 X156.995 Y108.77 E0.07817
G1 X156.217 Y109.846 E0.07287
G1 X155.29 Y110.795 E0.0728
G1 X154.237 Y111.599 E0.07271
G1 X153.273 Y112.147 E0.06085
G1 X72.818 Y150.439 E4.88988
G1 X72.251 Y150.568 E0.03191
G1 X53.2 Y150.568 E1.0455
G1 X52.622 Y150.437 E0.03252
G1 X52.161 Y150.146 E0.02992
G1 X51.975 Y149.935 E0.01544
G1 X51.786 Y149.621 E0.02011
G1 X51.66 Y149.236 E0.02223
G1 X51.66 Y54.028 E5.22494
G1 X51.791 Y53.45 E0.03252
G1 X52.082 Y52.989 E0.02992
G0 F3600 X52.385 Y53.308
G1 F1500 X52.52 Y53.18 E0.01021
G1 X52.834 Y52.991 E0.02011
G1 X53.061 Y52.928 E0.01293
G1 X72.256 Y52.928 E1.05341
G1 X72.617 Y53.004 E0.02025
G1 X153.448 Y96.495 E5.03728
G1 X154.482 Y97.164 E0.06759
G1 X155.455 Y98.02 E0.07112
G1 X156.267 Y98.985 E0.06921
G1 X156.902 Y100.005 E0.06594
G1 X157.386 Y101.095 E0.06545
G1 X157.753 Y102.438 E0.07641
G1 X157.895 Y103.692 E0.06926
G1 X157.865 Y104.826 E0.06225
G1 X157.623 Y106.194 E0.07624
G1 X157.229 Y107.362 E0.06765
G1 X156.637 Y108.514 E0.07108
G1 X155.901 Y109.54 E0.0693
G1 X155.022 Y110.446 E0.06928
G1 X154.02 Y111.216 E0.06935
G1 X153.056 Y111.764 E0.06085
G1 X72.629 Y150.042 E4.88817
G1 X72.251 Y150.128 E0.02127
G1 X53.2 Y150.128 E1.0455
G1 X52.845 Y150.058 E0.01986
G1 X52.48 Y149.843 E0.02325
G1 X52.352 Y149.708 E0.01021
G1 X52.163 Y149.394 E0.02011
G1 X52.1 Y149.167 E0.01293
G1 X52.1 Y54.028 E5.22115
G1 X52.17 Y53.673 E0.01986
G1 X52.385 Y53.308 E0.02325
G0 F3600 X53.019 Y53.903
G1 F1500 X53.14 Y53.808 E0.00844
G1 X72.256 Y53.808 E1.04907
G1 X152.974 Y97.236 E5.03018
G1 X153.905 Y97.829 E0.06058
G1 X154.784 Y98.59 E0.06381
G1 X155.52 Y99.452 E0.0622
G1 X156.125 Y100.415 E0.06241
G1 X156.58 Y101.449 E0.062
G1 X156.879 Y102.542 E0.06219
G1 X157.015 Y103.668 E0.06224
G1 X156.985 Y104.802 E0.06225
G1 X156.788 Y105.918 E0.06219
G1 X156.444 Y106.964 E0.06043
G1 X155.918 Y108.006 E0.06406
G1 X155.266 Y108.931 E0.06211
G1 X154.483 Y109.751 E0.06222
G1 X153.586 Y110.45 E0.06241
G1 X152.622 Y110.998 E0.06085
G1 X72.251 Y149.248 E4.88473
G1 X53.2 Y149.248 E1.0455
G1 X53.075 Y149.209 E0.00719
G1 X52.98 Y149.088 E0.00844
G1 X52.98 Y54.028 E5.21682
G1 X53.019 Y53.903 E0.00719
G0 F3600 X52.599 Y53.772
G1 F1500 X52.747 Y53.557 E0.01432
G1 X53.061 Y53.368 E0.02011
G1 X72.256 Y53.368 E1.05341
G1 X72.464 Y53.421 E0.01178
G1 X153.21 Y96.865 E5.03195
G1 X154.193 Y97.496 E0.0641
G1 X155.119 Y98.304 E0.06744
G1 X155.893 Y99.218 E0.06573
G1 X156.528 Y100.238 E0.06594
G1 X156.983 Y101.272 E0.062
G1 X157.316 Y102.489 E0.06924
G1 X157.455 Y103.68 E0.0658
G1 X157.425 Y104.814 E0.06225
G1 X157.206 Y106.055 E0.06916
G1 X156.837 Y107.162 E0.06404
G1 X156.278 Y108.259 E0.06757
G1 X155.584 Y109.235 E0.06572
G1 X154.753 Y110.098 E0.06575
G1 X153.803 Y110.833 E0.06592
G1 X152.839 Y111.381 E0.06085
G1 X72.44 Y149.645 E4.88645
G1 X72.251 Y149.688 E0.01064
G1 X53.2 Y149.688 E1.0455
G1 X52.944 Y149.629 E0.01442
G1 X52.729 Y149.481 E0.01432
G1 X52.54 Y149.167 E0.02011
G1 X52.54 Y54.028 E5.22115
G1 X52.599 Y53.772 E0.01442
G1 F12000 E-2
G1 F600 Z0.8
G0 F3600 X61.112 Y56.893 Z0.8
G1 F600 Z0.3
G1 F12000 E2
G1 F1500 X61.46 Y56.565 E0.02624
G1 X61.879 Y56.323 E0.02655
G1 X62.341 Y56.186 E0.02645
G1 X62.818 Y56.158 E0.02622
G1 X63.294 Y56.243 E0.02654
G1 X63.741 Y56.435 E0.0267
G1 X64.122 Y56.718 E0.02605
G1 X64.432 Y57.087 E0.02645
G1 X64.648 Y57.519 E0.02651
G1 X64.759 Y57.987 E0.0264
G1 X64.759 Y58.469 E0.02645
G1 X64.648 Y58.938 E0.02645
G1 X64.431 Y59.368 E0.02643
G1 X64.123 Y59.736 E0.02634
G1 X63.737 Y60.023 E0.0264
G1 X63.294 Y60.214 E0.02647
G1 X62.819 Y60.298 E0.02647
G1 X62.341 Y60.269 E0.02628
G1 X61.879 Y60.132 E0.02645
G1 X61.46 Y59.89 E0.02655
G1 X61.112 Y59.562 E0.02624
G1 X60.847 Y59.158 E0.02652
G1 X60.682 Y58.707 E0.02635
G1 X60.627 Y58.227 E0.02651
G1 X60.681 Y57.753 E0.02618
G1 X60.849 Y57.294 E0.02682
G1 X61.112 Y56.893 E0.02632
G0 F3600 X61.452 Y57.178
G1 F1500 X61.725 Y56.92 E0.02061
G1 X62.056 Y56.729 E0.02097
G1 X62.416 Y56.622 E0.02061
G1 X62.791 Y56.6 E0.02062
G1 X63.167 Y56.667 E0.02096
G1 X63.518 Y56.818 E0.02097
G1 X63.818 Y57.041 E0.02051
G1 X64.063 Y57.332 E0.02088
G1 X64.232 Y57.669 E0.02069
G1 X64.319 Y58.037 E0.02075
G1 X64.319 Y58.419 E0.02096
G1 X64.233 Y58.785 E0.02063
G1 X64.061 Y59.125 E0.02091
G1 X63.818 Y59.415 E0.02076
G1 X63.519 Y59.638 E0.02047
G1 X63.164 Y59.791 E0.02121
G1 X62.794 Y59.856 E0.02062
G1 X62.416 Y59.833 E0.02078
G1 X62.056 Y59.726 E0.02061
G1 X61.725 Y59.535 E0.02097
G1 X61.452 Y59.277 E0.02061
G1 X61.242 Y58.958 E0.02096
G1 X61.113 Y58.605 E0.02063
G1 X61.07 Y58.227 E0.02088
G1 X61.112 Y57.855 E0.02054
G1 X61.244 Y57.494 E0.02109
G1 X61.452 Y57.178 E0.02076
G0 F3600 X61.792 Y57.461
G1 F1500 X61.989 Y57.275 E0.01487
G1 X62.23 Y57.136 E0.01527
G1 X62.495 Y57.058 E0.01516
G1 X62.765 Y57.042 E0.01484
G1 X63.036 Y57.09 E0.0151
G1 X63.299 Y57.203 E0.01571
G1 X63.515 Y57.364 E0.01478
G1 X63.693 Y57.576 E0.01519
G1 X63.816 Y57.822 E0.01509
G1 X63.879 Y58.087 E0.01495
G1 X63.879 Y58.365 E0.01526
G1 X63.815 Y58.636 E0.01528
G1 X63.69 Y58.884 E0.01524
G1 X63.515 Y59.093 E0.01496
G1 X63.299 Y59.253 E0.01475
G1 X63.036 Y59.367 E0.01573
G1 X62.769 Y59.414 E0.01488
G1 X62.495 Y59.397 E0.01507
G1 X62.23 Y59.319 E0.01516
G1 X61.989 Y59.18 E0.01527
G1 X61.792 Y58.994 E0.01487
G1 X61.637 Y58.757 E0.01554
G1 X61.544 Y58.504 E0.01479
G1 X61.512 Y58.226 E0.01536
G1 X61.543 Y57.956 E0.01491
G1 X61.639 Y57.693 E0.01536
G1 X61.792 Y57.461 E0.01525
G1 F12000 E-2
G1 F600 Z0.8
G0 F3600 X147.451 Y103.097 Z0.8
G1 F600 Z0.3
G1 F12000 E2
G1 F1500 X147.716 Y102.693 E0.02652
G1 X148.065 Y102.364 E0.02632
G1 X148.484 Y102.121 E0.02658
G1 X148.942 Y101.986 E0.0262
G1 X149.423 Y101.957 E0.02644
G1 X149.898 Y102.041 E0.02647
G1 X150.341 Y102.232 E0.02647
G1 X150.727 Y102.519 E0.0264
G1 X151.035 Y102.887 E0.02634
G1 X151.252 Y103.317 E0.02643
G1 X151.363 Y103.786 E0.02645
G1 X151.363 Y104.267 E0.0264
G1 X151.251 Y104.737 E0.02652
G1 X151.036 Y105.168 E0.02643
G1 X150.726 Y105.537 E0.02645
G1 X150.345 Y105.82 E0.02605
G1 X149.898 Y106.012 E0.0267
G1 X149.422 Y106.097 E0.02654
G1 X148.946 Y106.069 E0.02617
G1 X148.479 Y105.931 E0.02672
G1 X148.066 Y105.691 E0.02621
G1 X147.716 Y105.362 E0.02636
G1 X147.451 Y104.958 E0.02652
G1 X147.285 Y104.503 E0.02658
G1 X147.231 Y104.027 E0.02629
G1 X147.286 Y103.549 E0.02641
G1 X147.451 Y103.097 E0.02641
G0 F3600 X147.846 Y103.297
G1 F1500 X148.056 Y102.978 E0.02096
G1 X148.328 Y102.721 E0.02054
G1 X148.661 Y102.528 E0.02112
G1 X149.02 Y102.422 E0.02054
G1 X149.398 Y102.399 E0.02078
G1 X149.768 Y102.464 E0.02062
G1 X150.123 Y102.617 E0.02121
G1 X150.422 Y102.84 E0.02047
G1 X150.665 Y103.13 E0.02076
G1 X150.837 Y103.47 E0.02091
G1 X150.923 Y103.836 E0.02063
G1 X150.923 Y104.216 E0.02085
G1 X150.835 Y104.587 E0.02093
G1 X150.667 Y104.923 E0.02062
G1 X150.422 Y105.214 E0.02088
G1 X150.122 Y105.437 E0.02051
G1 X149.771 Y105.588 E0.02097
G1 X149.395 Y105.655 E0.02096
G1 X149.024 Y105.634 E0.02039
G1 X148.656 Y105.524 E0.02108
G1 X148.329 Y105.334 E0.02075
G1 X148.055 Y105.077 E0.02062
G1 X147.846 Y104.759 E0.02088
G1 X147.716 Y104.402 E0.02085
G1 X147.674 Y104.027 E0.02071
G1 X147.717 Y103.65 E0.02082
G1 X147.846 Y103.297 E0.02063
G0 F3600 X148.241 Y103.498
G1 F1500 X148.396 Y103.261 E0.01554
G1 X148.593 Y103.076 E0.01483
G1 X148.835 Y102.935 E0.01537
G1 X149.098 Y102.857 E0.01505
G1 X149.373 Y102.841 E0.01512
G1 X149.64 Y102.888 E0.01488
G1 X149.903 Y103.002 E0.01573
G1 X150.119 Y103.162 E0.01475
G1 X150.294 Y103.371 E0.01496
G1 X150.419 Y103.619 E0.01524
G1 X150.483 Y103.89 E0.01528
G1 X150.483 Y104.165 E0.01509
G1 X150.419 Y104.437 E0.01533
G1 X150.298 Y104.678 E0.0148
G1 X150.119 Y104.891 E0.01527
G1 X149.903 Y105.052 E0.01478
G1 X149.64 Y105.165 E0.01571
G1 X149.369 Y105.213 E0.0151
G1 X149.099 Y105.197 E0.01484
G1 X148.832 Y105.118 E0.01528
G1 X148.595 Y104.98 E0.01505
G1 X148.393 Y104.791 E0.01518
G1 X148.245 Y104.564 E0.01487
G1 X148.147 Y104.297 E0.01561
G1 X148.116 Y104.028 E0.01486
G1 X148.148 Y103.751 E0.0153
G1 X148.241 Y103.498 E0.01479
G1 F12000 E-2
G1 F600 Z0.8
G0 F3600 X64.648 Y144.119 Z0.8
G1 F600 Z0.3
G1 F12000 E2
G1 F1500 X64.759 Y144.587 E0.0264
G1 X64.759 Y145.069 E0.02645
G1 X64.648 Y145.538 E0.02645
G1 X64.431 Y145.968 E0.02643
G1 X64.123 Y146.336 E0.02634
G1 X63.737 Y146.623 E0.0264
G1 X63.294 Y146.814 E0.02647
G1 X62.819 Y146.898 E0.02647
G1 X62.341 Y146.869 E0.02628
G1 X61.879 Y146.732 E0.02645
G1 X61.46 Y146.49 E0.02655
G1 X61.112 Y146.162 E0.02624
G1 X60.847 Y145.758 E0.02652
G1 X60.682 Y145.307 E0.02635
G1 X60.627 Y144.827 E0.02651
G1 X60.681 Y144.353 E0.02618
G1 X60.849 Y143.894 E0.02682
G1 X61.112 Y143.493 E0.02632
G1 X61.46 Y143.165 E0.02624
G1 X61.879 Y142.923 E0.02655
G1 X62.341 Y142.786 E0.02645
G1 X62.818 Y142.758 E0.02622
G1 X63.294 Y142.843 E0.02654
G1 X63.741 Y143.035 E0.0267
G1 X64.122 Y143.318 E0.02605
G1 X64.432 Y143.687 E0.02645
G1 X64.648 Y144.119 E0.02651
G0 F3600 X64.232 Y144.269
G1 F1500 X64.319 Y144.637 E0.02075
G1 X64.319 Y145.019 E0.02096
G1 X64.233 Y145.385 E0.02063
G1 X64.061 Y145.725 E0.02091
