;FLAVOR:RepRap
;TIME:1036
;Filament used: 1.10722m
;Layer height: 0.2
;MINX:86.171
;MINY:86.107
;MINZ:0.3
;MAXX:123.821
;MAXY:123.893
;MAXZ:9.9
;TARGET_MACHINE.NAME:Unknown
;Generated with Cura_SteamEngine 5.8.1
T0
M190 S65
M104 S215
M109 S215
M82 ;absolute extrusion mode
; === JOB START ===
G91                ; relative mode
G0 Z5 F1000        ; move extruder up 5 mm before homing
G28 X0 Y0          ; Home X Y
G90                ; absolute mode
G0 Z5 F1000        ; move up before move
G0 X100 Y0 F2000   ; front center on the table
G28 Z0             ; Home Z
G0 Z0.3 F1000      ; lift nozzle before movement
M117               ; clear any messages on LCD
T0                 ; Activate Extruder 1
; === JOB START ===
M83 ;relative extrusion mode
G1 F12000 E-2
;LAYER_COUNT:49
;LAYER:0
M107
G1 F600 Z0.8
G0 F3600 X90.526 Y92.74 Z0.8
;TYPE:SKIRT
G1 F600 Z0.3
G1 F12000 E2
G1 F1500 X91.099 Y92.244 E0.04159
G1 X93.112 Y90.447 E0.14809
G1 X94.252 Y89.392 E0.08524
G1 X94.886 Y88.924 E0.04325
G1 X95.884 Y88.336 E0.06357
G1 X96.498 Y88.041 E0.03738
G1 X100.212 Y86.853 E0.21399
G1 X101.603 Y86.388 E0.08049
G1 X102.402 Y86.219 E0.04482
G1 X103.544 Y86.107 E0.06297
G1 X104.367 Y86.12 E0.04517
G1 X105.293 Y86.234 E0.0512
G1 X108.897 Y86.617 E0.1989
G1 X109.311 Y86.653 E0.02281
G1 X110.105 Y86.802 E0.04433
G1 X110.782 Y87.003 E0.03876
G1 X111.37 Y87.203 E0.03408
G1 X112.109 Y87.549 E0.04478
G1 X112.952 Y88.058 E0.05404
G1 X115.949 Y89.79 E0.18996
G1 X116.388 Y90.034 E0.02756
G1 X117.019 Y90.469 E0.04206
G1 X117.513 Y90.886 E0.03548
G1 X117.967 Y91.296 E0.03357
G1 X118.577 Y91.988 E0.05062
G1 X118.918 Y92.476 E0.03267
G1 X120.978 Y95.315 E0.1925
G1 X121.499 Y96.007 E0.04754
G1 X121.969 Y96.808 E0.05097
G1 X122.442 Y97.885 E0.06455
G1 X122.685 Y98.676 E0.04541
G1 X122.808 Y99.311 E0.0355
G1 X123.372 Y102.032 E0.1525
G1 X123.717 Y103.531 E0.08441
G1 X123.821 Y104.444 E0.05043
G1 X123.817 Y105.642 E0.06575
G1 X123.714 Y106.483 E0.0465
G1 X123.616 Y106.9 E0.02351
G1 X122.839 Y110.533 E0.20389
G1 X122.683 Y111.336 E0.04489
G1 X122.398 Y112.233 E0.05165
G1 X121.917 Y113.294 E0.06393
G1 X121.57 Y113.886 E0.03766
G1 X119.621 Y116.531 E0.18031
G1 X119.177 Y117.171 E0.04275
G1 X118.488 Y118.125 E0.06458
G1 X117.957 Y118.713 E0.04348
G1 X117.121 Y119.462 E0.0616
G1 X116.403 Y119.97 E0.04827
G1 X115.822 Y120.292 E0.03645
G1 X112.836 Y122.014 E0.18917
G1 X112.065 Y122.475 E0.0493
G1 X111.264 Y122.837 E0.04824
G1 X110.13 Y123.2 E0.06534
G1 X109.355 Y123.353 E0.04335
G1 X105.331 Y123.765 E0.22199
G1 X104.319 Y123.885 E0.05593
G1 X103.532 Y123.893 E0.04319
G1 X102.27 Y123.756 E0.06966
G1 X101.468 Y123.572 E0.04516
G1 X100.936 Y123.386 E0.03093
G1 X97.679 Y122.326 E0.18797
G1 X96.736 Y122.037 E0.05413
G1 X95.887 Y121.666 E0.05085
G1 X94.961 Y121.131 E0.05869
G1 X94.207 Y120.571 E0.05154
G1 X93.928 Y120.309 E0.021
G1 X91.24 Y117.88 E0.19882
G1 X90.438 Y117.174 E0.05864
G1 X89.919 Y116.603 E0.04235
G1 X89.206 Y115.618 E0.06673
G1 X88.843 Y114.976 E0.04047
G1 X87.429 Y111.748 E0.1934
G1 X86.741 Y110.255 E0.09022
G1 X86.5 Y109.525 E0.04219
G1 X86.246 Y108.326 E0.06726
G1 X86.171 Y107.489 E0.04612
G1 X86.186 Y106.682 E0.0443
G1 X86.191 Y103.14 E0.19438
G1 X86.181 Y102.482 E0.03611
G1 X86.241 Y101.753 E0.04014
G1 X86.376 Y101.023 E0.04074
G1 X86.51 Y100.428 E0.03347
G1 X86.761 Y99.694 E0.04257
G1 X87.069 Y99.032 E0.04007
G1 X88.628 Y95.517 E0.21102
G1 X88.79 Y95.131 E0.02297
G1 X89.256 Y94.305 E0.05205
G1 X89.958 Y93.35 E0.06505
G1 X90.526 Y92.74 E0.04574
G0 F3600 X90.814 Y93.073
G1 F1500 X91.387 Y92.577 E0.04159
G1 X93.405 Y90.775 E0.14847
G1 X94.514 Y89.745 E0.08306
G1 X95.11 Y89.303 E0.04072
G1 X96.075 Y88.733 E0.06151
G1 X96.689 Y88.438 E0.03738
G1 X97.345 Y88.238 E0.03764
G1 X100.347 Y87.272 E0.17307
G1 X101.695 Y86.818 E0.07806
G1 X102.446 Y86.657 E0.04215
G1 X103.538 Y86.547 E0.06023
G1 X104.313 Y86.557 E0.04253
G1 X105.247 Y86.672 E0.05164
G1 X108.851 Y87.054 E0.19889
G1 X109.272 Y87.091 E0.02319
G1 X109.98 Y87.224 E0.03953
G1 X110.642 Y87.42 E0.03789
G1 X111.185 Y87.602 E0.03143
G1 X111.882 Y87.926 E0.04218
G1 X112.732 Y88.439 E0.05448
G1 X115.735 Y90.175 E0.19036
G1 X116.174 Y90.419 E0.02756
G1 X116.735 Y90.805 E0.03737
G1 X117.218 Y91.213 E0.0347
G1 X117.672 Y91.623 E0.03357
G1 X118.216 Y92.24 E0.04514
G1 X118.557 Y92.728 E0.03267
G1 X120.626 Y95.58 E0.19336
G1 X121.147 Y96.272 E0.04754
G1 X121.567 Y96.986 E0.04546
G1 X122.022 Y98.015 E0.06175
G1 X122.253 Y98.76 E0.04281
G1 X122.377 Y99.4 E0.03578
G1 X122.943 Y102.131 E0.15306
G1 X123.288 Y103.63 E0.08441
G1 X123.381 Y104.444 E0.04496
G1 X123.38 Y105.59 E0.06289
G1 X123.286 Y106.382 E0.04377
G1 X123.188 Y106.799 E0.02351
G1 X122.409 Y110.441 E0.20439
G1 X122.251 Y111.252 E0.04534
G1 X121.997 Y112.052 E0.04606
G1 X121.537 Y113.071 E0.06136
G1 X121.19 Y113.663 E0.03766
G1 X119.267 Y116.27 E0.17778
G1 X118.82 Y116.914 E0.04302
G1 X118.161 Y117.831 E0.06197
G1 X117.663 Y118.385 E0.04088
G1 X116.827 Y119.134 E0.0616
G1 X116.19 Y119.585 E0.04283
G1 X115.609 Y119.907 E0.03645
G1 X112.61 Y121.636 E0.18998
G1 X111.839 Y122.097 E0.0493
G1 X111.129 Y122.418 E0.04276
G1 X110.045 Y122.768 E0.06251
G1 X109.27 Y122.921 E0.04335
G1 X108.808 Y122.961 E0.02545
G1 X105.286 Y123.327 E0.19433
G1 X104.315 Y123.445 E0.05368
G1 X103.528 Y123.453 E0.04319
G1 X102.367 Y123.327 E0.06409
G1 X101.613 Y123.156 E0.04243
G1 X101.081 Y122.971 E0.03091
G1 X97.808 Y121.905 E0.18891
G1 X96.865 Y121.616 E0.05413
G1 X96.107 Y121.285 E0.04539
G1 X95.181 Y120.75 E0.05869
G1 X94.508 Y120.25 E0.04601
G1 X94.229 Y119.988 E0.021
G1 X91.53 Y117.549 E0.19964
G1 X90.764 Y116.878 E0.05589
G1 X90.245 Y116.307 E0.04235
G1 X89.589 Y115.401 E0.06139
G1 X89.226 Y114.759 E0.04047
G1 X87.832 Y111.572 E0.1909
G1 X87.159 Y110.117 E0.08798
G1 X86.918 Y109.387 E0.04219
G1 X86.684 Y108.285 E0.06183
G1 X86.611 Y107.497 E0.04343
G1 X86.626 Y106.69 E0.0443
G1 X86.631 Y103.141 E0.19477
G1 X86.62 Y102.518 E0.0342
G1 X86.68 Y101.789 E0.04014
G1 X86.806 Y101.118 E0.03747
G1 X86.927 Y100.569 E0.03085
G1 X87.16 Y99.88 E0.03992
G1 X87.468 Y99.218 E0.04007
G1 X89.034 Y95.687 E0.21198
G1 X89.196 Y95.301 E0.02297
G1 X89.611 Y94.565 E0.04637
G1 X90.281 Y93.649 E0.06228
G1 X90.814 Y93.073 E0.04307
G0 F3600 X91.102 Y93.406
G1 F1500 X91.675 Y92.91 E0.04159
G1 X93.705 Y91.097 E0.14937
G1 X94.777 Y90.098 E0.08042
G1 X95.334 Y89.682 E0.03815
G1 X96.299 Y89.112 E0.06151
G1 X96.817 Y88.859 E0.03164
G1 X97.48 Y88.657 E0.03804
G1 X100.482 Y87.691 E0.17307
G1 X101.789 Y87.248 E0.07574
G1 X102.491 Y87.095 E0.03943
G1 X103.534 Y86.987 E0.05755
G1 X104.259 Y86.994 E0.03979
G1 X105.201 Y87.11 E0.05209
G1 X108.805 Y87.491 E0.19889
G1 X109.233 Y87.529 E0.02358
G1 X109.855 Y87.646 E0.03473
G1 X110.504 Y87.838 E0.03714
G1 X111.001 Y88.002 E0.02872
G1 X111.655 Y88.303 E0.03951
G1 X112.512 Y88.82 E0.05493
G1 X115.521 Y90.56 E0.19075
G1 X115.96 Y90.804 E0.02756
G1 X116.485 Y91.167 E0.03503
G1 X116.923 Y91.54 E0.03157
G1 X117.377 Y91.95 E0.03357
G1 X117.855 Y92.492 E0.03966
G1 X118.196 Y92.98 E0.03267
G1 X120.274 Y95.845 E0.19423
G1 X120.795 Y96.537 E0.04754
G1 X121.165 Y97.165 E0.04
G1 X121.602 Y98.147 E0.05899
G1 X121.821 Y98.844 E0.04009
G1 X121.946 Y99.489 E0.03606
G1 X122.514 Y102.23 E0.15362
G1 X122.859 Y103.729 E0.08441
G1 X122.941 Y104.445 E0.03955
G1 X122.943 Y105.54 E0.06009
G1 X122.858 Y106.281 E0.04093
G1 X122.76 Y106.698 E0.02351
G1 X121.979 Y110.349 E0.2049
G1 X121.819 Y111.168 E0.0458
G1 X121.596 Y111.872 E0.04053
G1 X121.157 Y112.848 E0.05873
G1 X120.81 Y113.44 E0.03766
G1 X118.913 Y116.009 E0.17526
G1 X118.462 Y116.658 E0.04337
G1 X117.833 Y117.538 E0.05936
G1 X117.368 Y118.058 E0.03828
G1 X116.571 Y118.776 E0.05887
G1 X115.977 Y119.2 E0.04005
G1 X115.396 Y119.522 E0.03645
G1 X112.39 Y121.255 E0.19042
G1 X111.656 Y121.697 E0.04702
G1 X110.993 Y122 E0.04
G1 X109.958 Y122.337 E0.05974
G1 X109.233 Y122.483 E0.04059
G1 X108.763 Y122.523 E0.02589
G1 X105.241 Y122.889 E0.19433
G1 X104.262 Y123.008 E0.05412
G1 X103.525 Y123.013 E0.04045
G1 X102.463 Y122.898 E0.05862
G1 X101.757 Y122.74 E0.0397
G1 X101.225 Y122.556 E0.03089
G1 X97.937 Y121.484 E0.18979
G1 X96.994 Y121.195 E0.05413
G1 X96.327 Y120.904 E0.03994
G1 X95.401 Y120.369 E0.05869
G1 X94.809 Y119.929 E0.04048
G1 X94.53 Y119.667 E0.021
G1 X91.819 Y117.217 E0.20053
G1 X91.089 Y116.581 E0.05313
G1 X90.601 Y116.048 E0.03966
G1 X89.972 Y115.184 E0.05865
G1 X89.609 Y114.542 E0.04047
G1 X89.36 Y113.953 E0.03509
G1 X88.235 Y111.395 E0.15336
G1 X87.576 Y109.977 E0.08581
G1 X87.348 Y109.295 E0.03946
G1 X87.122 Y108.243 E0.05905
G1 X87.051 Y107.505 E0.04069
G1 X87.066 Y106.698 E0.0443
G1 X87.071 Y103.142 E0.19515
G1 X87.06 Y102.51 E0.03469
G1 X87.113 Y101.87 E0.03524
G1 X87.236 Y101.211 E0.03679
G1 X87.344 Y100.71 E0.02813
G1 X87.577 Y100.021 E0.03992
G1 X87.866 Y99.405 E0.03734
G1 X89.439 Y95.859 E0.21289
G1 X89.602 Y95.471 E0.0231
G1 X89.967 Y94.824 E0.04077
G1 X90.605 Y93.947 E0.05952
G1 X91.102 Y93.406 E0.04032
G1 F12000 E-2
G1 F600 Z0.8
G0 F3600 X99.444 Y99.376 Z0.8
G1 F600 Z0.3
G1 F12000 E2
G1 F1500 X100.13 Y98.785 E0.04969
G1 X100.859 Y98.288 E0.04842
G1 X101.652 Y97.872 E0.04914
G1 X102.473 Y97.552 E0.04836
G1 X103.349 Y97.323 E0.04969
G1 X104.219 Y97.2 E0.04822
G1 X105.114 Y97.175 E0.04914
G1 X105.998 Y97.251 E0.04869
G1 X106.877 Y97.428 E0.04921
G1 X107.718 Y97.699 E0.04849
G1 X108.574 Y98.092 E0.05169
G1 X109.331 Y98.553 E0.04864
G1 X110.036 Y99.101 E0.049
G1 X110.673 Y99.723 E0.04886
G1 X111.234 Y100.412 E0.04876
G1 X111.716 Y101.164 E0.04902
G1 X112.108 Y101.966 E0.04899
G1 X112.406 Y102.803 E0.04876
G1 X112.604 Y103.66 E0.04827
G1 X112.707 Y104.56 E0.04971
G1 X112.706 Y105.438 E0.04818
G1 X112.603 Y106.339 E0.04977
G1 X112.405 Y107.194 E0.04816
G1 X112.105 Y108.036 E0.04905
G1 X111.695 Y108.871 E0.05105
G1 X111.203 Y109.63 E0.04964
G1 X110.639 Y110.315 E0.04869
G1 X110.005 Y110.928 E0.0484
G1 X109.296 Y111.473 E0.04908
G1 X108.527 Y111.932 E0.04915
G1 X107.721 Y112.302 E0.04867
G1 X106.879 Y112.573 E0.04854
G1 X105.999 Y112.75 E0.04926
G1 X105.116 Y112.825 E0.04863
G1 X104.22 Y112.799 E0.04919
G1 X103.35 Y112.676 E0.04822
G1 X102.473 Y112.447 E0.04974
G1 X101.642 Y112.124 E0.04893
G1 X100.832 Y111.695 E0.0503
G1 X100.122 Y111.209 E0.04722
G1 X99.41 Y110.592 E0.0517
G1 X98.821 Y109.947 E0.04794
G1 X98.297 Y109.221 E0.04914
G1 X97.858 Y108.443 E0.04902
G1 X97.51 Y107.616 E0.04924
G1 X97.263 Y106.77 E0.04837
G1 X97.111 Y105.886 E0.04923
G1 X97.061 Y104.999 E0.04876
G1 X97.113 Y104.111 E0.04882
G1 X97.263 Y103.232 E0.04894
G1 X97.511 Y102.385 E0.04843
G1 X97.86 Y101.554 E0.04946
G1 X98.32 Y100.744 E0.05112
G1 X98.849 Y100.02 E0.04921
G1 X99.444 Y99.376 E0.04812
G0 F3600 X99.753 Y99.69
G1 F1500 X100.398 Y99.134 E0.04673
G1 X101.085 Y98.666 E0.04562
G1 X101.835 Y98.273 E0.04647
G1 X102.605 Y97.973 E0.04535
G1 X103.443 Y97.754 E0.04753
G1 X104.249 Y97.639 E0.04468
G1 X105.098 Y97.616 E0.04661
G1 X105.944 Y97.688 E0.0466
G1 X106.761 Y97.853 E0.04574
G1 X107.561 Y98.111 E0.04613
G1 X108.364 Y98.48 E0.0485
G1 X109.085 Y98.918 E0.0463
G1 X109.745 Y99.432 E0.04591
G1 X110.347 Y100.019 E0.04614
G1 X110.876 Y100.669 E0.04599
G1 X111.334 Y101.385 E0.04664
G1 X111.7 Y102.132 E0.04565
G1 X111.983 Y102.929 E0.04641
G1 X112.17 Y103.738 E0.04557
G1 X112.267 Y104.58 E0.04651
G1 X112.266 Y105.413 E0.04571
G1 X112.169 Y106.261 E0.04684
G1 X111.982 Y107.07 E0.04557
G1 X111.699 Y107.866 E0.04636
G1 X111.31 Y108.657 E0.04837
G1 X110.849 Y109.368 E0.0465
G1 X110.32 Y110.011 E0.04569
G1 X109.713 Y110.598 E0.04634
G1 X109.048 Y111.109 E0.04602
G1 X108.322 Y111.542 E0.04639
G1 X107.564 Y111.89 E0.04577
G1 X106.763 Y112.148 E0.04618
G1 X105.944 Y112.313 E0.04585
G1 X105.1 Y112.384 E0.04648
G1 X104.25 Y112.36 E0.04667
G1 X103.444 Y112.245 E0.04468
G1 X102.605 Y112.026 E0.04759
G1 X101.829 Y111.725 E0.04568
G1 X101.061 Y111.318 E0.0477
G1 X100.392 Y110.86 E0.04449
G1 X99.718 Y110.277 E0.04891
G1 X99.161 Y109.666 E0.04537
G1 X98.667 Y108.982 E0.0463
G1 X98.253 Y108.249 E0.0462
G1 X97.928 Y107.476 E0.04602
G1 X97.69 Y106.662 E0.04654
G1 X97.549 Y105.839 E0.04582
G1 X97.501 Y104.999 E0.04617
G1 X97.55 Y104.168 E0.04568
G1 X97.693 Y103.328 E0.04676
G1 X97.927 Y102.531 E0.04558
G1 X98.254 Y101.753 E0.04631
G1 X98.693 Y100.978 E0.04888
G1 X99.185 Y100.305 E0.04575
G1 X99.753 Y99.69 E0.04594
G0 F3600 X100.058 Y100.007
G1 F1500 X100.665 Y99.485 E0.04394
G1 X101.31 Y99.045 E0.04285
G1 X102.018 Y98.674 E0.04387
G1 X102.747 Y98.389 E0.04296
G1 X103.52 Y98.187 E0.04385
G1 X104.288 Y98.078 E0.04257
G1 X105.09 Y98.057 E0.04403
G1 X105.88 Y98.124 E0.04351
G1 X106.645 Y98.278 E0.04282
G1 X107.4 Y98.522 E0.04354
G1 X108.158 Y98.869 E0.04575
G1 X108.839 Y99.284 E0.04377
G1 X109.45 Y99.759 E0.04247
G1 X110.025 Y100.321 E0.04412
G1 X110.517 Y100.925 E0.04275
G1 X110.95 Y101.602 E0.0441
G1 X111.295 Y102.306 E0.04302
G1 X111.559 Y103.047 E0.04317
G1 X111.736 Y103.816 E0.04331
G1 X111.827 Y104.608 E0.04375
G1 X111.826 Y105.389 E0.04286
G1 X111.735 Y106.182 E0.0438
G1 X111.558 Y106.952 E0.04336
G1 X111.294 Y107.691 E0.04307
G1 X110.927 Y108.439 E0.04572
G1 X110.491 Y109.112 E0.04401
G1 X109.994 Y109.716 E0.04293
G1 X109.431 Y110.259 E0.04293
G1 X108.803 Y110.742 E0.04348
G1 X108.116 Y111.152 E0.04391
G1 X107.403 Y111.479 E0.04305
G1 X106.648 Y111.723 E0.04354
G1 X105.881 Y111.877 E0.04293
G1 X105.094 Y111.943 E0.04334
G1 X104.289 Y111.921 E0.04419
G1 X103.521 Y111.812 E0.04257
G1 X102.745 Y111.609 E0.04402
G1 X102.015 Y111.326 E0.04297
G1 X101.284 Y110.938 E0.04542
G1 X100.66 Y110.511 E0.04149
G1 X100.03 Y109.965 E0.04575
G1 X99.504 Y109.389 E0.04281
G1 X99.037 Y108.742 E0.04379
G1 X98.651 Y108.057 E0.04315
G1 X98.341 Y107.32 E0.04388
G1 X98.121 Y106.567 E0.04305
G1 X97.986 Y105.784 E0.0436
G1 X97.942 Y104.999 E0.04315
G1 X97.988 Y104.213 E0.04321
G1 X98.12 Y103.437 E0.0432
G1 X98.344 Y102.674 E0.04364
G1 X98.649 Y101.948 E0.04322
G1 X99.065 Y101.216 E0.04621
G1 X99.529 Y100.581 E0.04316
G1 X100.058 Y100.007 E0.04284
G1 F12000 E-2
G0 F3600 X102.742 Y102.674
G1 F12000 E2
G1 F1500 X102.356 Y103.105 E0.03175
G1 X102.21 Y103.311 E0.01386
G1 X101.983 Y103.726 E0.02596
G1 X101.892 Y103.945 E0.01301
G1 X101.78 Y104.327 E0.02185
G1 X101.74 Y104.543 E0.01206
G1 X101.706 Y104.944 E0.02209
G1 X101.717 Y105.221 E0.01521
G1 X101.825 Y105.858 E0.03546
G1 X101.916 Y106.145 E0.01652
G1 X102.116 Y106.567 E0.02563
G1 X102.251 Y106.784 E0.01403
G1 X102.557 Y107.166 E0.02686
G1 X102.718 Y107.328 E0.01253
G1 X103.075 Y107.621 E0.02535
G1 X103.271 Y107.75 E0.01288
G1 X103.626 Y107.932 E0.02189
G1 X103.832 Y108.012 E0.01213
G1 X104.218 Y108.12 E0.022
G1 X104.444 Y108.159 E0.01259
G1 X104.883 Y108.187 E0.02414
G1 X105.094 Y108.18 E0.01159
G1 X105.488 Y108.129 E0.0218
G1 X105.737 Y108.067 E0.01408
G1 X106.233 Y107.879 E0.02911
G1 X106.475 Y107.751 E0.01502
G1 X106.887 Y107.462 E0.02762
G1 X107.051 Y107.321 E0.01187
G1 X107.348 Y107.01 E0.0236
G1 X107.478 Y106.844 E0.01157
G1 X107.691 Y106.512 E0.02165
G1 X107.802 Y106.285 E0.01387
G1 X107.974 Y105.799 E0.02829
G1 X108.029 Y105.563 E0.0133
G1 X108.081 Y105.129 E0.02399
G1 X108.084 Y104.898 E0.01268
G1 X108.047 Y104.492 E0.02237
G1 X108.006 Y104.277 E0.01201
G1 X107.893 Y103.899 E0.02165
G1 X107.811 Y103.699 E0.01186
G1 X107.625 Y103.348 E0.0218
G1 X107.491 Y103.151 E0.01308
G1 X107.185 Y102.791 E0.02593
G1 X107.004 Y102.621 E0.01363
G1 X106.612 Y102.329 E0.02683
G1 X106.417 Y102.213 E0.01245
G1 X106.013 Y102.026 E0.02443
G1 X105.792 Y101.951 E0.01281
G1 X105.396 Y101.862 E0.02227
G1 X105.18 Y101.835 E0.01195
G1 X104.783 Y101.826 E0.02179
G1 X104.553 Y101.845 E0.01267
G1 X104.127 Y101.926 E0.0238
G1 X103.924 Y101.986 E0.01162
G1 X103.481 Y102.163 E0.02618
G1 X103.269 Y102.276 E0.01318
G1 X102.941 Y102.5 E0.0218
G1 X102.742 Y102.674 E0.01451
G0 F3600 X103.069 Y102.968
G1 F1500 X102.683 Y103.399 E0.03175
G1 X102.596 Y103.522 E0.00827
G1 X102.369 Y103.937 E0.02596
G1 X102.315 Y104.068 E0.00778
G1 X102.203 Y104.45 E0.02185
G1 X102.178 Y104.58 E0.00727
G1 X102.144 Y104.981 E0.02209
G1 X102.151 Y105.147 E0.00912
G1 X102.259 Y105.784 E0.03546
G1 X102.314 Y105.957 E0.00996
G1 X102.514 Y106.379 E0.02563
G1 X102.595 Y106.509 E0.00841
