;FLAVOR:RepRap
;TIME:1210
;Filament used: 0.93115m
;Layer height: 0.15
;MINX:86.17
;MINY:90.317
;MINZ:0.3
;MAXX:123.825
;MAXY:128.101
;MAXZ:7.05
;TARGET_MACHINE.NAME:Unknown
;Generated with Cura_SteamEngine 5.8.1
T0
M190 S65
M104 S215
M109 S215
M82 ;absolute extrusion mode
; === JOB START ===
G91                ; relative mode
G0 Z5 F1000        ; move extruder up 5 mm before homing
G28 X0 Y0          ; Home X Y
G90                ; absolute mode
G0 Z5 F1000        ; move up before move
G0 X100 Y0 F2000   ; front center on the table
G28 Z0             ; Home Z
G0 Z0.3 F1000      ; lift nozzle before movement
M117               ; clear any messages on LCD
T0                 ; Activate Extruder 1
; === JOB START ===
M83 ;relative extrusion mode
G1 F12000 E-2
;LAYER_COUNT:46
;LAYER:0
M107
G1 F600 Z0.8
G0 F3600 X90.533 Y96.953 Z0.8
;TYPE:SKIRT
G1 F600 Z0.3
G1 F12000 E2
G1 F1500 X91.246 Y96.332 E0.05189
G1 X93.639 Y94.175 E0.1768
G1 X94.21 Y93.644 E0.04279
G1 X94.864 Y93.147 E0.04508
G1 X95.855 Y92.548 E0.06355
G1 X96.75 Y92.163 E0.05347
G1 X97.365 Y91.975 E0.03529
G1 X100.726 Y90.887 E0.19387
G1 X101.573 Y90.601 E0.04906
G1 X102.377 Y90.429 E0.04512
G1 X103.442 Y90.317 E0.05877
G1 X104.377 Y90.326 E0.05131
G1 X105.204 Y90.429 E0.04574
G1 X108.885 Y90.82 E0.20315
G1 X109.352 Y90.862 E0.02573
G1 X110.058 Y90.994 E0.03942
G1 X110.782 Y91.207 E0.04142
G1 X111.37 Y91.407 E0.03408
G1 X112.109 Y91.753 E0.04478
G1 X112.952 Y92.262 E0.05404
G1 X115.949 Y93.994 E0.18996
G1 X116.388 Y94.238 E0.02756
G1 X117.019 Y94.673 E0.04206
G1 X117.513 Y95.09 E0.03548
G1 X117.966 Y95.499 E0.03349
G1 X118.578 Y96.193 E0.05078
G1 X118.943 Y96.716 E0.035
G1 X120.985 Y99.53 E0.19081
G1 X121.499 Y100.213 E0.04691
G1 X121.965 Y101.005 E0.05043
G1 X122.419 Y102.027 E0.06137
G1 X122.671 Y102.824 E0.04587
G1 X123.517 Y106.862 E0.22641
G1 X123.721 Y107.747 E0.04984
G1 X123.825 Y108.68 E0.05152
G1 X123.816 Y109.855 E0.06448
G1 X123.718 Y110.667 E0.04489
G1 X123.595 Y111.2 E0.03002
G1 X122.848 Y114.695 E0.19613
G1 X122.665 Y115.621 E0.0518
G1 X122.425 Y116.37 E0.04316
G1 X121.922 Y117.488 E0.06728
G1 X121.523 Y118.157 E0.04275
G1 X120.989 Y118.868 E0.0488
G1 X118.898 Y121.739 E0.19492
G1 X118.567 Y122.21 E0.03159
G1 X118.037 Y122.824 E0.04451
G1 X117.546 Y123.288 E0.03707
G1 X117.07 Y123.707 E0.0348
G1 X116.446 Y124.147 E0.0419
G1 X115.952 Y124.423 E0.03105
G1 X112.827 Y126.224 E0.19794
G1 X112.045 Y126.69 E0.04996
G1 X111.241 Y127.052 E0.04839
G1 X110.221 Y127.381 E0.05882
G1 X109.315 Y127.562 E0.0507
G1 X106.008 Y127.884 E0.18234
G1 X104.403 Y128.081 E0.08874
G1 X103.578 Y128.101 E0.04529
G1 X102.264 Y127.96 E0.07253
G1 X101.462 Y127.775 E0.04517
G1 X100.918 Y127.586 E0.0316
G1 X98.335 Y126.731 E0.14932
G1 X96.676 Y126.216 E0.09533
G1 X95.936 Y125.891 E0.04435
G1 X94.936 Y125.317 E0.06328
G1 X94.249 Y124.81 E0.04686
G1 X93.667 Y124.269 E0.04361
G1 X91.034 Y121.889 E0.19478
G1 X90.524 Y121.444 E0.03714
G1 X89.969 Y120.854 E0.04445
G1 X89.608 Y120.383 E0.03257
G1 X89.197 Y119.807 E0.03883
G1 X88.8 Y119.092 E0.04488
G1 X88.614 Y118.654 E0.02611
G1 X87.265 Y115.605 E0.18297
G1 X86.749 Y114.484 E0.06772
G1 X86.477 Y113.656 E0.04783
G1 X86.256 Y112.605 E0.05894
G1 X86.17 Y111.676 E0.0512
G1 X86.185 Y110.932 E0.04084
G1 X86.191 Y107.349 E0.19663
G1 X86.18 Y106.734 E0.03376
G1 X86.249 Y105.915 E0.04511
G1 X86.377 Y105.229 E0.0383
G1 X86.511 Y104.634 E0.03347
G1 X86.776 Y103.861 E0.04485
G1 X87.141 Y103.076 E0.04751
G1 X88.851 Y99.211 E0.23194
G1 X89.259 Y98.502 E0.04489
G1 X89.627 Y97.996 E0.03434
G1 X89.976 Y97.543 E0.03138
G1 X90.533 Y96.953 E0.04453
G0 F3600 X90.822 Y97.285
G1 F1500 X91.535 Y96.664 E0.05189
G1 X93.934 Y94.502 E0.17723
G1 X94.51 Y93.966 E0.04318
G1 X95.092 Y93.524 E0.04011
G1 X96.083 Y92.925 E0.06355
G1 X96.879 Y92.584 E0.04752
G1 X97.501 Y92.394 E0.03569
G1 X100.862 Y91.305 E0.19389
G1 X101.666 Y91.031 E0.04661
G1 X102.423 Y90.867 E0.04251
G1 X103.488 Y90.755 E0.05877
G1 X104.323 Y90.763 E0.04583
G1 X105.158 Y90.867 E0.04618
G1 X108.839 Y91.257 E0.20314
G1 X109.271 Y91.295 E0.0238
G1 X109.977 Y91.427 E0.03942
G1 X110.642 Y91.624 E0.03806
G1 X111.185 Y91.806 E0.03143
G1 X111.882 Y92.13 E0.04218
G1 X112.732 Y92.643 E0.05448
G1 X115.735 Y94.379 E0.19036
G1 X116.174 Y94.623 E0.02756
G1 X116.735 Y95.009 E0.03737
G1 X117.218 Y95.417 E0.0347
G1 X117.671 Y95.826 E0.03349
G1 X118.217 Y96.445 E0.0453
G1 X118.582 Y96.968 E0.035
G1 X120.633 Y99.795 E0.19167
G1 X121.147 Y100.478 E0.04691
G1 X121.563 Y101.185 E0.04502
G1 X121.999 Y102.16 E0.05861
G1 X122.251 Y102.957 E0.04587
G1 X122.343 Y103.429 E0.02639
G1 X123.088 Y106.961 E0.1981
G1 X123.292 Y107.846 E0.04984
G1 X123.385 Y108.678 E0.04594
G1 X123.379 Y109.804 E0.06179
G1 X123.289 Y110.568 E0.04222
G1 X123.166 Y111.101 E0.03002
G1 X122.418 Y114.603 E0.19652
G1 X122.245 Y115.488 E0.04949
G1 X122.023 Y116.19 E0.04041
G1 X121.543 Y117.264 E0.06456
G1 X121.171 Y117.893 E0.0401
G1 X120.637 Y118.604 E0.0488
G1 X118.542 Y121.48 E0.19527
G1 X118.207 Y121.957 E0.03199
G1 X117.735 Y122.504 E0.03965
G1 X117.254 Y122.959 E0.03634
G1 X116.816 Y123.347 E0.03211
G1 X116.192 Y123.787 E0.0419
G1 X115.739 Y124.038 E0.02842
G1 X112.607 Y125.843 E0.19838
G1 X111.82 Y126.312 E0.05028
G1 X111.106 Y126.633 E0.04296
G1 X110.086 Y126.962 E0.05882
G1 X109.277 Y127.124 E0.04528
G1 X108.7 Y127.174 E0.03178
G1 X105.954 Y127.447 E0.15144
G1 X104.349 Y127.644 E0.08874
G1 X103.568 Y127.661 E0.04287
G1 X102.362 Y127.531 E0.06657
G1 X101.606 Y127.359 E0.04255
G1 X101.062 Y127.17 E0.0316
G1 X98.473 Y126.313 E0.14966
G1 X96.852 Y125.813 E0.09309
G1 X96.155 Y125.509 E0.04173
G1 X95.155 Y124.935 E0.06328
G1 X94.512 Y124.457 E0.04397
G1 X93.968 Y123.948 E0.04088
G1 X91.323 Y121.557 E0.19567
G1 X90.813 Y121.112 E0.03714
G1 X90.318 Y120.586 E0.03964
G1 X89.965 Y120.126 E0.03182
G1 X89.581 Y119.592 E0.0361
G1 X89.205 Y118.92 E0.04226
G1 X89.019 Y118.482 E0.02611
G1 X87.665 Y115.421 E0.18369
G1 X87.149 Y114.3 E0.06772
G1 X86.908 Y113.565 E0.04245
G1 X86.687 Y112.514 E0.05894
G1 X86.61 Y111.685 E0.04569
G1 X86.625 Y110.941 E0.04084
G1 X86.631 Y107.35 E0.19707
G1 X86.62 Y106.726 E0.03425
G1 X86.681 Y105.996 E0.0402
G1 X86.807 Y105.324 E0.03752
G1 X86.928 Y104.775 E0.03085
G1 X87.175 Y104.047 E0.04219
G1 X87.54 Y103.262 E0.04751
G1 X88.919 Y100.158 E0.1864
G1 X89.233 Y99.429 E0.04356
G1 X89.615 Y98.761 E0.04223
G1 X89.976 Y98.265 E0.03367
G1 X90.325 Y97.812 E0.03138
G1 X90.822 Y97.285 E0.03975
G0 F3600 X91.111 Y97.617
G1 F1500 X91.824 Y96.996 E0.05189
G1 X94.229 Y94.829 E0.17766
G1 X94.81 Y94.288 E0.04357
G1 X95.321 Y93.9 E0.03521
G1 X96.258 Y93.329 E0.06022
G1 X97.007 Y93.005 E0.04479
G1 X97.637 Y92.813 E0.03614
G1 X100.998 Y91.723 E0.19391
G1 X101.761 Y91.461 E0.04427
G1 X102.469 Y91.305 E0.03979
G1 X103.534 Y91.193 E0.05877
G1 X104.269 Y91.2 E0.04034
G1 X105.112 Y91.305 E0.04662
G1 X108.793 Y91.694 E0.20314
G1 X109.232 Y91.733 E0.02419
G1 X109.852 Y91.849 E0.03462
G1 X110.504 Y92.042 E0.03732
G1 X111.001 Y92.206 E0.02872
G1 X111.655 Y92.507 E0.03951
G1 X112.512 Y93.024 E0.05493
G1 X115.521 Y94.764 E0.19075
G1 X115.96 Y95.008 E0.02756
G1 X116.485 Y95.371 E0.03503
G1 X116.923 Y95.744 E0.03157
G1 X117.376 Y96.153 E0.03349
G1 X117.856 Y96.697 E0.03981
G1 X118.221 Y97.22 E0.035
G1 X120.281 Y100.06 E0.19254
G1 X120.795 Y100.743 E0.04691
G1 X121.161 Y101.365 E0.03961
G1 X121.597 Y102.34 E0.05861
G1 X121.819 Y103.041 E0.04035
G1 X121.912 Y103.52 E0.02678
G1 X122.659 Y107.06 E0.19855
G1 X122.863 Y107.945 E0.04984
G1 X122.945 Y108.677 E0.04042
G1 X122.942 Y109.754 E0.05911
G1 X122.86 Y110.469 E0.0395
G1 X122.737 Y111.002 E0.03002
G1 X121.988 Y114.511 E0.19691
G1 X121.825 Y115.355 E0.04717
G1 X121.603 Y116.057 E0.04041
G1 X121.164 Y117.04 E0.05908
G1 X120.792 Y117.669 E0.0401
G1 X120.281 Y118.345 E0.0465
G1 X118.186 Y121.221 E0.19527
G1 X117.847 Y121.704 E0.03238
G1 X117.432 Y122.185 E0.03486
G1 X116.961 Y122.631 E0.0356
G1 X116.561 Y122.988 E0.02942
G1 X115.979 Y123.402 E0.0392
G1 X115.526 Y123.653 E0.02842
G1 X112.387 Y125.462 E0.19882
G1 X111.638 Y125.911 E0.04792
G1 X110.971 Y126.214 E0.0402
G1 X109.951 Y126.543 E0.05882
G1 X109.239 Y126.686 E0.03985
G1 X108.656 Y126.736 E0.03211
G1 X105.9 Y127.01 E0.15199
G1 X104.295 Y127.207 E0.08874
G1 X103.56 Y127.221 E0.04034
G1 X102.458 Y127.102 E0.06083
G1 X101.75 Y126.943 E0.03982
G1 X101.206 Y126.754 E0.0316
G1 X98.602 Y125.892 E0.15053
G1 X97.026 Y125.409 E0.09046
G1 X96.373 Y125.127 E0.03904
G1 X95.416 Y124.581 E0.06047
G1 X94.813 Y124.136 E0.04113
G1 X94.269 Y123.627 E0.04088
G1 X91.612 Y121.225 E0.19657
G1 X91.102 Y120.78 E0.03714
G1 X90.667 Y120.318 E0.03482
G1 X90.321 Y119.868 E0.03115
G1 X89.964 Y119.376 E0.03336
G1 X89.61 Y118.748 E0.03956
G1 X89.424 Y118.31 E0.02611
G1 X88.067 Y115.243 E0.18405
G1 X87.567 Y114.162 E0.06536
G1 X87.339 Y113.474 E0.03978
G1 X87.118 Y112.423 E0.05894
G1 X87.05 Y111.694 E0.04018
G1 X87.065 Y110.95 E0.04084
G1 X87.071 Y107.351 E0.19751
G1 X87.06 Y106.718 E0.03474
G1 X87.114 Y106.077 E0.0353
G1 X87.237 Y105.417 E0.03684
G1 X87.345 Y104.915 E0.02818
G1 X87.574 Y104.233 E0.03948
G1 X87.939 Y103.448 E0.04751
G1 X89.321 Y100.337 E0.18682
G1 X89.616 Y99.646 E0.04123
G1 X89.971 Y99.02 E0.03949
G1 X90.325 Y98.534 E0.033
G1 X90.674 Y98.081 E0.03138
G1 X91.111 Y97.617 E0.03498
G1 F12000 E-2
G1 F600 Z0.8
G0 F3600 X100.612 Y106.095 Z0.8
G1 F600 Z0.3
G1 F12000 E2
G1 F1500 X105.443 Y103.943 E0.29024
G1 X109.722 Y107.052 E0.29027
G1 X109.168 Y112.313 E0.29032
G1 X104.337 Y114.465 E0.29024
G1 X100.058 Y111.356 E0.29027
G1 X100.612 Y106.095 E0.29032
G0 F3600 X101.022 Y106.394
G1 F1500 X105.39 Y104.449 E0.2624
G1 X109.258 Y107.259 E0.26238
G1 X108.758 Y112.014 E0.26239
G1 X104.39 Y113.959 E0.2624
G1 X100.522 Y111.149 E0.26238
G1 X101.022 Y106.394 E0.26239
G0 F3600 X101.434 Y106.692
G1 F1500 X105.337 Y104.954 E0.23447
G1 X108.794 Y107.466 E0.23451
G1 X108.346 Y111.716 E0.23453
G1 X104.443 Y113.454 E0.23447
G1 X100.986 Y110.942 E0.23451
G1 X101.434 Y106.692 E0.23453
G0 F3600 X101.823 Y106.976
;TYPE:SUPPORT
G1 F1650 X105.287 Y105.435 E0.18915
G1 X108.348 Y107.659 E0.18877
G1 X107.952 Y111.428 E0.18907
G1 X104.493 Y112.97 E0.18894
G1 X101.431 Y110.746 E0.18881
G1 X101.823 Y106.976 E0.1891
G0 F3600 X102.884 Y106.68
G1 F1500 X106.729 Y106.68 E0.21101
G1 X106.68 Y106.645
G1 X106.68 Y111.82 E0.284
G0 F3600 X106.243 Y112.014
G1 F1500 X103.449 Y112.014 E0.15333
G0 F3600 X104.013 Y112.423
G1 F1500 X104.013 Y106.177 E0.34278
G1 F12000 E-2
G0 F3600 X101.738 Y109.347
G1 F12000 E2
G1 F1500 X108.009 Y109.347 E0.34415
G1 F12000 E-2
;MESH:gear 15 v45.stl
G0 F3600 X111.037 Y107.161
G0 X111.386 Y106.015
G0 X111.225 Y106.236
;TYPE:WALL-INNER
G1 F12000 E2
G1 F1500 X111.329 Y106.482 E0.01466
G1 X111.708 Y106.285 E0.02344
G1 X112.089 Y106.201 E0.02141
G1 X112.543 Y106.211 E0.02492
G1 X112.945 Y106.324 E0.02292
G1 X113.328 Y106.554 E0.02452
G1 X113.58 Y106.802 E0.0194
G1 X113.814 Y107.162 E0.02356
G1 X113.964 Y107.623 E0.0266
G1 X113.977 Y108.081 E0.02514
G1 X113.854 Y108.558 E0.02703
G1 X113.664 Y108.898 E0.02137
G1 X113.408 Y109.178 E0.02082
G1 X113.064 Y109.415 E0.02293
G1 X112.569 Y109.586 E0.02874
G1 X112.072 Y109.595 E0.02728
G1 X111.668 Y109.494 E0.02285
G1 X111.428 Y109.383 E0.01451
G1 X111.088 Y109.128 E0.02332
G1 X110.668 Y113.086 E0.21843
G1 X110.553 Y113.331 E0.01485
G1 X110.357 Y113.511 E0.0146
G1 X106.915 Y115.045 E0.2068
G1 X107.255 Y115.253 E0.02187
G1 X107.553 Y115.56 E0.02348
G1 X107.767 Y115.933 E0.0236
G1 X107.895 Y116.455 E0.0295
G1 X107.861 Y116.948 E0.02712
G1 X107.757 Y117.282 E0.0192
G1 X107.519 Y117.669 E0.02493
G1 X107.178 Y117.983 E0.02544
G1 X106.834 Y118.171 E0.02151
G1 X106.394 Y118.286 E0.02496
G1 X105.907 Y118.273 E0.02674
G1 X105.592 Y118.191 E0.01786
G1 X105.186 Y117.973 E0.02529
G1 X104.909 Y117.72 E0.02059
G1 X104.635 Y117.302 E0.02743
G1 X104.514 Y116.919 E0.02204
G1 X104.485 Y116.557 E0.01993
G1 X104.561 Y116.093 E0.0258
G1 X104.304 Y116.176 E0.01482
G1 X104.132 Y116.174 E0.00944
G1 X103.904 Y116.098 E0.01319
G1 X98.699 Y112.318 E0.35302
G1 X98.531 Y112.14 E0.01343
G1 X98.443 Y111.931 E0.01245
G1 X98.126 Y112.098 E0.01966
G1 X97.691 Y112.206 E0.0246
G1 X97.287 Y112.203 E0.02217
G1 X96.931 Y112.113 E0.02015
G1 X96.475 Y111.87 E0.02836
G1 X96.161 Y111.567 E0.02395
G1 X95.945 Y111.21 E0.0229
G1 X95.816 Y110.791 E0.02406
G1 X95.796 Y110.397 E0.02165
G1 X95.889 Y109.94 E0.02559
G1 X96.132 Y109.484 E0.02836
G1 X96.376 Y109.216 E0.01989
G1 X96.703 Y108.992 E0.02175
G1 X97.113 Y108.839 E0.02402
G1 X97.649 Y108.804 E0.02948
G1 X98.071 Y108.895 E0.02369
G1 X98.444 Y109.082 E0.0229
G1 X98.687 Y109.278 E0.01713
G1 X99.101 Y105.357 E0.21638
G1 X99.243 Y105.046 E0.01876
G1 X99.439 Y104.886 E0.01389
G1 X102.861 Y103.359 E0.20565
G1 X102.514 Y103.145 E0.02237
G1 X102.216 Y102.836 E0.02356
G1 X102.001 Y102.456 E0.02396
G1 X101.882 Y101.962 E0.02789
G1 X101.899 Y101.534 E0.02351
G1 X102.033 Y101.1 E0.02493
G1 X102.209 Y100.806 E0.0188
G1 X102.503 Y100.495 E0.02349
G1 X102.873 Y100.264 E0.02394
G1 X103.364 Y100.122 E0.02805
G1 X103.784 Y100.118 E0.02305
G1 X104.137 Y100.199 E0.01988
G1 X104.545 Y100.401 E0.02498
G1 X104.857 Y100.675 E0.02279
G1 X105.132 Y101.087 E0.02718
G1 X105.266 Y101.493 E0.02346
G1 X105.292 Y101.87 E0.02074
G1 X105.218 Y102.311 E0.02454
G1 X105.464 Y102.229 E0.01423
G1 X105.626 Y102.228 E0.00889
G1 X105.87 Y102.305 E0.01404
G1 X111.138 Y106.132 E0.35734
G1 X111.225 Y106.236 E0.00744
G0 F3600 X111.386 Y106.015
G0 X113.872 Y105.649
G0 X113.83 Y104.823
G1 F1500 X113.256 Y104.528 E0.03542
G1 X112.928 Y104.247 E0.0237
G1 X112.188 Y103.261 E0.06766
G1 X111.944 Y102.776 E0.02979
G1 X111.835 Y102.335 E0.02493
G1 X111.859 Y101.698 E0.03498
G1 X111.927 Y101.384 E0.01763
G1 X111.327 Y101.547 E0.03412
G1 X110.992 Y101.576 E0.01845
G1 X110.542 Y101.513 E0.02494
G1 X110.154 Y101.384 E0.02244
G1 X108.981 Y100.697 E0.0746
G1 X108.575 Y100.28 E0.03194
G1 X108.259 Y99.733 E0.03467
G1 X108.151 Y99.161 E0.03195
G1 X107.731 Y99.56 E0.03179
G1 X107.15 Y99.817 E0.03486
G1 X106.871 Y99.892 E0.01585
G1 X106.468 Y99.905 E0.02213
G1 F1489.8 X105.214 Y99.786 E0.0696
G1 X105.713 Y100.345 E0.0414
G1 F1500 X105.921 Y100.698 E0.02249
G1 X106.126 Y101.309 E0.03537
G1 X106.147 Y101.468 E0.0088
G1 X106.42 Y101.611 E0.01691
G1 X111.626 Y105.399 E0.35333
G1 X111.974 Y105.328 E0.01949
G1 X112.674 Y105.34 E0.03842
G1 X113.277 Y105.509 E0.03437
G1 X113.866 Y105.858 E0.03757
G1 X113.981 Y105.959 E0.0084
G1 X114.062 Y105.651 E0.01748
G1 X114.304 Y105.186 E0.02877
G1 X114.508 Y104.911 E0.01879
G1 X114.162 Y104.904 E0.01899
G1 X113.83 Y104.823 E0.01875
G0 F3600 X114.409 Y107.168
G1 F401.8 X114.524 Y107.734 E0.04733
G0 F3600 X114.999 Y109.41
G1 F1274.1 X115.313 Y109.202 E0.02433
G1 X114.733 Y108.81 E0.04523
G1 X114.617 Y109.08 E0.01899
G1 F1377.9 X114.378 Y109.411 E0.02439
G1 F1493.2 X114.02 Y109.811 E0.02959
G1 X113.516 Y110.17 E0.03411
G1 F1500 X113.219 Y110.307 E0.01795
G1 X112.719 Y110.453 E0.02859
G1 X112.295 Y110.486 E0.02334
G1 X111.835 Y110.445 E0.02534
G1 X111.54 Y113.235 E0.15397
G1 X111.465 Y113.48 E0.01406
G1 X111.257 Y113.858 E0.02368
G1 X111.08 Y114.058 E0.01466
G1 X110.799 Y114.277 E0.01955
G1 X108.443 Y115.326 E0.14153
G1 X108.685 Y115.906 E0.03449
G1 X108.774 Y116.407 E0.02792
G1 X108.768 Y116.806 E0.0219
G1 X108.629 Y117.455 E0.03642
G1 F1141.9 X108.586 Y117.887 E0.0313
G1 X108.985 Y117.713 E0.03138
G1 F1500 X110.151 Y117.02 E0.07444
G1 X110.544 Y116.89 E0.02272
G1 X111.04 Y116.828 E0.02743
G1 X111.622 Y116.918 E0.03232
G1 X111.927 Y117.02 E0.01765
G1 X111.859 Y116.706 E0.01763
G1 X111.83 Y116.116 E0.03242
G1 X111.968 Y115.559 E0.03149
G1 X112.091 Y115.276 E0.01693
G1 X112.943 Y114.137 E0.07806
G1 X113.136 Y113.963 E0.01426
G1 X113.764 Y113.608 E0.03959
G1 X114.172 Y113.499 E0.02318
G1 X114.508 Y113.493 E0.01844
G1 X114.309 Y113.226 E0.01827
G1 X114.085 Y112.814 E0.02574
G1 X113.989 Y112.507 E0.01765
G1 X113.948 Y111.89 E0.03394
G1 X114.226 Y110.456 E0.08016
G1 F1489.8 X114.513 Y109.934 E0.03291
G1 F1369.3 X114.999 Y109.41 E0.04297
G1 F12000 E-2
G0 F3600 X114.16 Y113.319
G0 X111.684 Y116.749
G0 X108.586 Y117.887
G1 F12000 E2
G1 F369.7 X108.269 Y118.353 E0.05019
