;FLAVOR:RepRap
;TIME:5088
;Filament used: 6.38166m
;Layer height: 0.2
;MINX:58.136
;MINY:58.136
;MINZ:0.3
;MAXX:151.864
;MAXY:151.864
;MAXZ:11.3
;TARGET_MACHINE.NAME:Unknown
;Generated with Cura_SteamEngine 5.8.1
T0
M190 S65
M104 S215
M109 S215
M82 ;absolute extrusion mode
; === JOB START ===
G91                ; relative mode
G0 Z5 F1000        ; move extruder up 5 mm before homing
G28 X0 Y0          ; Home X Y
G90                ; absolute mode
G0 Z5 F1000        ; move up before move
G0 X100 Y0 F2000   ; front center on the table
G28 Z0             ; Home Z
G0 Z0.3 F1000      ; lift nozzle before movement
M117               ; clear any messages on LCD
T0                 ; Activate Extruder 1
; === JOB START ===
M83 ;relative extrusion mode
G1 F12000 E-2
;LAYER_COUNT:56
;LAYER:0
M107
G1 F600 Z0.8
G0 F3600 X71.95 Y71.774 Z0.8
;TYPE:SKIRT
G1 F600 Z0.3
G1 F12000 E2
G1 F1500 X72.497 Y71.25 E0.04157
G1 X73.76 Y70.164 E0.09141
G1 X75.732 Y68.415 E0.14465
G1 X76.497 Y67.8 E0.05387
G1 X77.188 Y67.292 E0.04707
G1 X78.521 Y66.419 E0.08745
G1 X80.916 Y64.806 E0.15847
G1 X81.615 Y64.388 E0.0447
G1 X82.313 Y64.001 E0.0438
G1 X83.956 Y63.209 E0.1001
G1 X86.2 Y62.086 E0.13771
G1 X87.16 Y61.665 E0.05753
G1 X87.892 Y61.38 E0.04311
G1 X89.427 Y60.876 E0.08866
G1 X92.12 Y59.948 E0.15632
G1 X92.968 Y59.707 E0.04838
G1 X93.725 Y59.521 E0.04278
G1 X95.441 Y59.196 E0.09585
G1 X98.126 Y58.65 E0.15037
G1 X99.016 Y58.519 E0.04937
G1 X99.802 Y58.436 E0.04337
G1 X101.29 Y58.354 E0.08178
G1 X104.226 Y58.15 E0.16151
G1 X105.148 Y58.136 E0.0506
G1 X105.883 Y58.153 E0.04035
G1 X107.426 Y58.27 E0.08492
G1 X110.193 Y58.437 E0.15213
G1 X111.24 Y58.553 E0.05781
G1 X112.01 Y58.672 E0.04276
G1 X113.73 Y59.032 E0.09644
G1 X116.366 Y59.543 E0.14735
G1 X117.264 Y59.769 E0.05082
G1 X117.988 Y59.981 E0.0414
G1 X119.025 Y60.338 E0.06019
G1 X119.316 Y60.425 E0.01667
G1 X120.994 Y61.014 E0.0976
G1 X122.206 Y61.417 E0.07009
G1 X122.952 Y61.711 E0.044
G1 X123.757 Y62.064 E0.04824
G1 X125.132 Y62.759 E0.08455
G1 X127.586 Y63.952 E0.14974
G1 X128.552 Y64.484 E0.06052
G1 X129.202 Y64.879 E0.04174
G1 X130.572 Y65.814 E0.09103
G1 X132.911 Y67.363 E0.15396
G1 X133.623 Y67.892 E0.04868
G1 X134.187 Y68.344 E0.03967
G1 X135.087 Y69.139 E0.0659
G1 X135.509 Y69.524 E0.03135
G1 X137.58 Y71.323 E0.15055
G1 X138.226 Y71.95 E0.0494
G1 X138.75 Y72.497 E0.04157
G1 X139.909 Y73.845 E0.09756
G1 X141.687 Y75.853 E0.14719
G1 X142.265 Y76.581 E0.05101
G1 X142.703 Y77.18 E0.04072
G1 X143.566 Y78.499 E0.0865
G1 X145.194 Y80.916 E0.15993
G1 X145.612 Y81.615 E0.0447
G1 X146.013 Y82.343 E0.04561
G1 X146.763 Y83.901 E0.09489
G1 X147.914 Y86.2 E0.1411
G1 X148.334 Y87.158 E0.0574
G1 X148.62 Y87.891 E0.04318
G1 X149.107 Y89.374 E0.08566
G1 X150.052 Y92.119 E0.15932
G1 X150.268 Y92.874 E0.0431
G1 X150.479 Y93.725 E0.04812
G1 X150.804 Y95.441 E0.09585
G1 X151.349 Y98.125 E0.1503
G1 X151.48 Y99.013 E0.04926
G1 X151.564 Y99.799 E0.04338
G1 X151.645 Y101.278 E0.08129
G1 X151.85 Y104.226 E0.16217
G1 X151.864 Y105.147 E0.05055
G1 X151.847 Y105.883 E0.0404
G1 X151.732 Y107.403 E0.08365
G1 X151.565 Y110.176 E0.15246
G1 X151.447 Y111.238 E0.05864
G1 X151.33 Y111.997 E0.04215
G1 X150.966 Y113.741 E0.09777
G1 X150.46 Y116.354 E0.14606
G1 X150.26 Y117.157 E0.04541
G1 X150.071 Y117.824 E0.03805
G1 X149.537 Y119.361 E0.0893
G1 X148.643 Y122.039 E0.15494
G1 X148.248 Y123.049 E0.05952
G1 X147.936 Y123.757 E0.04246
G1 X147.241 Y125.132 E0.08455
G1 X145.969 Y127.738 E0.15914
G1 X145.516 Y128.553 E0.05117
G1 X145.121 Y129.202 E0.04169
G1 X144.196 Y130.556 E0.08999
G1 X142.638 Y132.91 E0.15492
G1 X142.105 Y133.627 E0.04903
G1 X141.619 Y134.23 E0.0425
G1 X140.488 Y135.496 E0.09316
G1 X138.677 Y137.58 E0.15152
G1 X138.05 Y138.226 E0.0494
G1 X137.503 Y138.75 E0.04157
G1 X136.252 Y139.825 E0.09052
G1 X134.268 Y141.585 E0.14555
G1 X133.503 Y142.2 E0.05387
G1 X132.812 Y142.708 E0.04707
G1 X131.479 Y143.581 E0.08745
G1 X129.084 Y145.194 E0.15847
G1 X128.385 Y145.612 E0.0447
G1 X127.687 Y145.999 E0.0438
G1 X126.044 Y146.791 E0.1001
G1 X123.8 Y147.914 E0.13771
G1 X122.84 Y148.335 E0.05753
G1 X122.108 Y148.62 E0.04311
G1 X120.573 Y149.124 E0.08866
G1 X117.88 Y150.052 E0.15632
G1 X117.032 Y150.293 E0.04838
G1 X116.275 Y150.479 E0.04278
G1 X114.559 Y150.804 E0.09585
G1 X111.874 Y151.35 E0.15037
G1 X110.984 Y151.481 E0.04937
G1 X110.198 Y151.564 E0.04337
G1 X108.71 Y151.646 E0.08178
G1 X105.774 Y151.85 E0.16151
G1 X104.852 Y151.864 E0.0506
G1 X104.117 Y151.847 E0.04035
G1 X102.574 Y151.73 E0.08492
G1 X99.807 Y151.563 E0.15213
G1 X98.76 Y151.447 E0.05781
G1 X97.99 Y151.328 E0.04276
G1 X96.27 Y150.968 E0.09644
G1 X93.634 Y150.457 E0.14735
G1 X92.736 Y150.231 E0.05082
G1 X92.012 Y150.019 E0.0414
G1 X90.975 Y149.662 E0.06019
G1 X90.684 Y149.575 E0.01667
G1 X89.006 Y148.986 E0.0976
G1 X87.794 Y148.583 E0.07009
G1 X87.048 Y148.289 E0.044
G1 X86.243 Y147.936 E0.04824
G1 X84.868 Y147.241 E0.08455
G1 X82.414 Y146.048 E0.14974
G1 X81.448 Y145.516 E0.06052
G1 X80.798 Y145.121 E0.04174
G1 X79.428 Y144.186 E0.09103
G1 X77.089 Y142.637 E0.15396
G1 X76.377 Y142.108 E0.04868
G1 X75.79 Y141.637 E0.0413
G1 X74.49 Y140.476 E0.09565
G1 X72.42 Y138.677 E0.15051
G1 X71.773 Y138.049 E0.04948
G1 X71.249 Y137.502 E0.04157
G1 X70.103 Y136.169 E0.09647
G1 X68.307 Y134.14 E0.14871
G1 X67.732 Y133.414 E0.05082
G1 X67.291 Y132.81 E0.04104
G1 X66.434 Y131.501 E0.08586
G1 X64.806 Y129.084 E0.15993
G1 X64.388 Y128.385 E0.0447
G1 X63.987 Y127.657 E0.04561
G1 X63.237 Y126.099 E0.09489
G1 X62.012 Y123.642 E0.15067
G1 X61.664 Y122.837 E0.04813
G1 X61.38 Y122.11 E0.04283
G1 X60.821 Y120.412 E0.0981
G1 X59.997 Y118.033 E0.13817
G1 X59.706 Y117.029 E0.05737
G1 X59.52 Y116.269 E0.04294
G1 X59.196 Y114.559 E0.09551
G1 X58.65 Y111.874 E0.15037
G1 X58.519 Y110.984 E0.04937
G1 X58.436 Y110.198 E0.04337
G1 X58.355 Y108.722 E0.08112
G1 X58.15 Y105.774 E0.16217
G1 X58.136 Y104.853 E0.05055
G1 X58.153 Y104.117 E0.0404
G1 X58.27 Y102.571 E0.08509
G1 X58.437 Y99.807 E0.15196
G1 X58.553 Y98.76 E0.05781
G1 X58.672 Y97.99 E0.04276
G1 X59.034 Y96.258 E0.0971
G1 X59.507 Y93.799 E0.13742
G1 X59.769 Y92.735 E0.06014
G1 X59.98 Y92.014 E0.04123
G1 X60.34 Y90.969 E0.06066
G1 X60.425 Y90.684 E0.01632
G1 X61.016 Y89.001 E0.09789
G1 X61.417 Y87.794 E0.0698
G1 X61.711 Y87.048 E0.044
G1 X62.064 Y86.243 E0.04824
G1 X62.765 Y84.856 E0.08529
G1 X64.031 Y82.262 E0.15841
G1 X64.484 Y81.447 E0.05117
G1 X64.879 Y80.798 E0.04169
G1 X65.814 Y79.428 E0.09103
G1 X67.363 Y77.089 E0.15396
G1 X67.899 Y76.368 E0.0493
G1 X68.392 Y75.758 E0.04304
G1 X69.494 Y74.525 E0.09075
G1 X71.323 Y72.42 E0.15304
G1 X71.95 Y71.774 E0.0494
G1 F12000 E-2
G1 F600 Z0.8
G0 F3600 X102.356 Y100.42 Z0.8
G1 F600 Z0.3
G1 F12000 E2
G1 F1500 X107.644 Y100.42 E0.2902
G1 X110.288 Y105 E0.29022
G1 X107.644 Y109.58 E0.29022
G1 X102.356 Y109.58 E0.2902
G1 X99.712 Y105 E0.29022
G1 X102.356 Y100.42 E0.29022
G0 F3600 X102.61 Y100.86
G1 F1500 X107.39 Y100.86 E0.26232
G1 X109.78 Y105 E0.26234
G1 X107.39 Y109.14 E0.26234
G1 X102.61 Y109.14 E0.26232
G1 X100.22 Y105 E0.26234
G1 X102.61 Y100.86 E0.26234
G0 F3600 X102.864 Y101.3
G1 F1500 X107.136 Y101.3 E0.23444
G1 X109.272 Y105 E0.23446
G1 X107.136 Y108.7 E0.23446
G1 X102.864 Y108.7 E0.23444
G1 X100.728 Y105 E0.23446
G1 X102.864 Y101.3 E0.23446
G0 F3600 X103.104 Y101.72
;TYPE:SUPPORT
G1 F1650 X106.892 Y101.72 E0.18898
G1 X108.785 Y105 E0.18894
G1 X106.892 Y108.28 E0.18894
G1 X103.104 Y108.28 E0.18898
G1 X101.211 Y105 E0.18894
G1 X103.104 Y101.72 E0.18894
G0 F3600 X104.013 Y101.88
G1 F1500 X104.013 Y108.12 E0.34245
G0 F3600 X102.365 Y106.68
G1 F1500 X107.63 Y106.68 E0.28894
G0 F3600 X106.68 Y108.12
G1 F1500 X106.68 Y101.88 E0.34245
G0 F3600 X108.031 Y104.013
G1 F1500 X101.966 Y104.013 E0.33284
G1 F12000 E-2
;MESH:gear 48+16 v71.stl
G0 F3600 X107.001 Y101.534
G0 X108.924 Y99.996
G0 X112.856 Y105.316
;TYPE:WALL-INNER
G1 F12000 E2
G1 F1500 X112.704 Y105.732 E0.02431
G1 X109.461 Y111.344 E0.35571
G1 X109.126 Y111.71 E0.02723
G1 X108.852 Y111.883 E0.01778
G1 X108.592 Y111.982 E0.01527
G1 X108.208 Y112.04 E0.02131
G1 X101.765 Y112.039 E0.35359
G1 X101.47 Y112 E0.01633
G1 X101.207 Y111.912 E0.01522
G1 X100.913 Y111.743 E0.01861
G1 X100.535 Y111.344 E0.03016
G1 X97.242 Y105.644 E0.36126
G1 X97.15 Y105.36 E0.01638
G1 X97.108 Y104.947 E0.02278
G1 X97.14 Y104.684 E0.01454
G1 X97.242 Y104.353 E0.01901
G1 X100.538 Y98.651 E0.36144
G1 X100.786 Y98.361 E0.02094
G1 X101.254 Y98.069 E0.03027
G1 X101.641 Y97.96 E0.02206
G1 X108.231 Y97.96 E0.36165
G1 X108.594 Y98.018 E0.02017
G1 X108.897 Y98.14 E0.01793
G1 X109.303 Y98.453 E0.02813
G1 X109.484 Y98.692 E0.01645
G1 X112.702 Y104.265 E0.35317
G1 X112.865 Y104.73 E0.02704
G1 X112.888 Y105.052 E0.01772
G1 X112.856 Y105.316 E0.01459
G1 F12000 E-2
G0 F3600 X108.656 Y111.334
G0 X101.344 Y111.334
G0 X97.614 Y105.408
G1 F12000 E2
G1 F1500 X97.548 Y105.044 E0.0203
G1 X97.559 Y104.838 E0.01132
G1 X97.648 Y104.539 E0.01712
G1 X100.948 Y98.818 E0.36245
G1 X101.171 Y98.614 E0.01659
G1 X101.53 Y98.439 E0.02192
G1 X101.778 Y98.4 E0.01378
G1 X108.264 Y98.403 E0.35595
G1 X108.548 Y98.465 E0.01595
G1 X108.823 Y98.612 E0.01711
G1 X109.059 Y98.835 E0.01782
G1 X112.329 Y104.501 E0.35901
G1 X112.405 Y104.692 E0.01128
G1 X112.449 Y104.999 E0.01702
G1 X112.352 Y105.462 E0.02596
G1 X109.093 Y111.103 E0.35752
G1 X108.821 Y111.389 E0.02166
G1 X108.579 Y111.523 E0.01518
G1 X108.303 Y111.6 E0.01573
G1 X101.732 Y111.597 E0.36061
G1 X101.448 Y111.535 E0.01595
G1 X101.111 Y111.339 E0.02139
G1 X100.928 Y111.14 E0.01484
G1 X97.614 Y105.408 E0.36336
G1 F12000 E-2
G0 F3600 X101.344 Y111.334
G0 X108.656 Y111.334
G0 X112.161 Y105.396
G0 X111.95 Y105.273
G1 F12000 E2
G1 F1500 X108.725 Y110.862 E0.35412
G1 X108.597 Y111.006 E0.01057
G1 X108.307 Y111.16 E0.01802
G1 X101.696 Y111.16 E0.36281
G1 X101.433 Y111.033 E0.01603
G1 X101.286 Y110.884 E0.01149
G1 X98.058 Y105.296 E0.35415
G1 X97.995 Y105.101 E0.01125
G1 X98.03 Y104.748 E0.01947
G1 X101.273 Y99.136 E0.35571
G1 X101.432 Y98.968 E0.01269
G1 X101.694 Y98.84 E0.016
G1 X108.248 Y98.839 E0.35968
G1 X108.417 Y98.886 E0.00963
G1 X108.679 Y99.057 E0.01717
G1 X111.969 Y104.756 E0.36113
G1 X112.009 Y104.999 E0.01352
G1 X111.95 Y105.273 E0.01538
G1 F12000 E-2
G1 F600 Z0.8
G0 F3600 X112.456 Y105.567 Z0.8
G0 X141.473 Y89.539
G1 F600 Z0.3
G1 F12000 E2
G1 F1500 X141.182 Y89.527 E0.01598
G1 X140.585 Y89.406 E0.03343
G1 X140.173 Y89.199 E0.0253
G1 X139.709 Y88.814 E0.03309
G1 X139.48 Y88.518 E0.02054
G1 X139.032 Y87.589 E0.0566
G1 X138.932 Y87.096 E0.02761
G1 X138.996 Y86.381 E0.0394
G1 X139.301 Y85.708 E0.04055
G1 X139.471 Y85.465 E0.01628
G1 X140.28 Y84.733 E0.05987
G1 X140.508 Y84.495 E0.01809
G1 X140.182 Y84.576 E0.01843
G1 X139.296 Y84.863 E0.05111
G1 X138.855 Y84.936 E0.02453
G1 X138.459 Y84.932 E0.02173
G1 X137.856 Y84.769 E0.03428
G1 X137.563 Y84.613 E0.01822
G1 X137.058 Y84.174 E0.03672
G1 X136.514 Y83.38 E0.05282
G1 X136.279 Y82.642 E0.0425
G1 X136.268 Y82.236 E0.02229
G1 X136.356 Y81.725 E0.02846
G1 X136.609 Y81.157 E0.03412
G1 X137.334 Y80.303 E0.06148
G1 X137.527 Y80.039 E0.01795
G1 X137.217 Y80.161 E0.01828
G1 X136.231 Y80.624 E0.05978
G1 X135.929 Y80.686 E0.01692
G1 X135.378 Y80.728 E0.03033
G1 X134.893 Y80.637 E0.02708
G1 X134.316 Y80.367 E0.03496
G1 X134.025 Y80.138 E0.02032
G1 X133.416 Y79.434 E0.05108
G1 X133.255 Y79.17 E0.01697
G1 X133.016 Y78.456 E0.04132
G1 X133.051 Y77.882 E0.03156
G1 X133.247 Y77.206 E0.03863
G1 X133.845 Y76.279 E0.06054
G1 X133.989 Y76.009 E0.01679
G1 X133.715 Y76.159 E0.01714
G1 X132.777 Y76.756 E0.06102
G1 X132.158 Y76.953 E0.03565
G1 X131.884 Y76.976 E0.01509
G1 X131.229 Y76.898 E0.0362
G1 X130.889 Y76.786 E0.01965
G1 X130.623 Y76.637 E0.01673
G1 X129.772 Y75.895 E0.06196
G1 X129.384 Y75.168 E0.04522
G1 X129.274 Y74.724 E0.0251
G1 X129.308 Y74.055 E0.03676
G1 X129.372 Y73.764 E0.01635
G1 X129.84 Y72.774 E0.0601
G1 X129.956 Y72.473 E0.0177
G1 X129.689 Y72.667 E0.01811
G1 X128.842 Y73.383 E0.06087
G1 X128.257 Y73.647 E0.03522
G1 X127.997 Y73.704 E0.01461
G1 X127.381 Y73.712 E0.03381
G1 X127.074 Y73.657 E0.01712
G1 X126.559 Y73.441 E0.03065
G1 X125.898 Y72.997 E0.0437
G1 X125.664 Y72.789 E0.01718
G1 X125.275 Y72.247 E0.03661
G1 X125.058 Y71.597 E0.03761
G1 X125.081 Y70.863 E0.0403
G1 X125.42 Y69.802 E0.06113
G1 X125.494 Y69.5 E0.01706
G1 X125.254 Y69.725 E0.01805
G1 X124.525 Y70.529 E0.05956
G1 X124.288 Y70.694 E0.01585
G1 X123.764 Y70.955 E0.03213
G1 X123.277 Y71.052 E0.02725
G1 X122.626 Y71.015 E0.03578
G1 X122.304 Y70.914 E0.01852
G1 X121.478 Y70.513 E0.05039
G1 X121.127 Y70.219 E0.02513
G1 X120.795 Y69.821 E0.02844
G1 X120.641 Y69.547 E0.01725
G1 X120.465 Y68.775 E0.04345
G1 X120.459 Y68.508 E0.01466
G1 X120.65 Y67.446 E0.05922
G1 X120.684 Y67.128 E0.01755
G1 X120.48 Y67.379 E0.01775
G1 X119.863 Y68.267 E0.05934
G1 X119.511 Y68.584 E0.026
G1 X119.184 Y68.791 E0.02124
G1 X118.651 Y68.972 E0.03089
G1 X118.31 Y69.004 E0.0188
G1 X117.802 Y68.986 E0.0279
G1 X116.902 Y68.682 E0.05213
G1 X116.56 Y68.498 E0.02131
G1 X116.092 Y68.087 E0.03418
G1 X115.865 Y67.782 E0.02087
G1 X115.736 Y67.489 E0.01757
G1 X115.562 Y66.864 E0.0356
G1 X115.62 Y65.723 E0.0627
G1 X115.61 Y65.393 E0.01812
G1 X115.439 Y65.671 E0.01791
G1 X114.916 Y66.693 E0.063
G1 X114.442 Y67.153 E0.03625
G1 X114.194 Y67.333 E0.01682
G1 X113.845 Y67.484 E0.02087
G1 X113.307 Y67.597 E0.03017
G1 X112.903 Y67.606 E0.02218
G1 X111.892 Y67.394 E0.05669
G1 X111.393 Y67.134 E0.03088
G1 X110.862 Y66.632 E0.0401
G1 X110.635 Y66.199 E0.02683
G1 X110.49 Y65.755 E0.02563
G1 X110.399 Y64.676 E0.05942
G1 X110.349 Y64.35 E0.0181
G1 X110.213 Y64.658 E0.01848
G1 X109.85 Y65.673 E0.05916
G1 X109.594 Y66.062 E0.02556
G1 X109.259 Y66.424 E0.02707
G1 X108.645 Y66.754 E0.03825
G1 X108.428 Y66.823 E0.0125
G1 X107.944 Y66.888 E0.0268
G1 X106.976 Y66.832 E0.05321
G1 X106.509 Y66.687 E0.02684
G1 X106.264 Y66.539 E0.01571
G1 X105.765 Y66.135 E0.03523
G1 X105.532 Y65.807 E0.02208
G1 X105.32 Y65.378 E0.02626
G1 X105.09 Y64.306 E0.06017
G1 X104.999 Y63.998 E0.01763
G1 X104.908 Y64.306 E0.01763
G1 X104.675 Y65.379 E0.06026
G1 X104.464 Y65.807 E0.02619
G1 X104.176 Y66.213 E0.02732
G1 X103.59 Y66.63 E0.03947
G1 X103.28 Y66.768 E0.01862
G1 X102.994 Y66.834 E0.01611
G1 X101.978 Y66.88 E0.05581
G1 X101.69 Y66.842 E0.01594
G1 X101.113 Y66.648 E0.03341
G1 X100.717 Y66.39 E0.02594
G1 X100.288 Y65.905 E0.03553
G1 X100.144 Y65.672 E0.01503
G1 X99.78 Y64.646 E0.05974
G1 X99.647 Y64.349 E0.01786
G1 X99.585 Y64.727 E0.02102
G1 X99.508 Y65.754 E0.05652
G1 X99.352 Y66.217 E0.02681
G1 X99.168 Y66.561 E0.02141
G1 X98.668 Y67.079 E0.03951
G1 X98.123 Y67.388 E0.03438
G1 X97.023 Y67.624 E0.06174
G1 X96.377 Y67.554 E0.03566
G1 X96.145 Y67.489 E0.01322
G1 X95.513 Y67.157 E0.03918
G1 X95.059 Y66.65 E0.03735
G1 X94.558 Y65.681 E0.05987
G1 X94.388 Y65.398 E0.01812
G1 X94.38 Y65.731 E0.01828
G1 X94.43 Y66.812 E0.05939
G1 X94.302 Y67.471 E0.03684
G1 X93.916 Y68.085 E0.0398
G1 X93.749 Y68.258 E0.0132
G1 X93.171 Y68.654 E0.03845
G1 X92.285 Y68.954 E0.05133
G1 X91.944 Y69.004 E0.01891
G1 X91.495 Y68.992 E0.02465
G1 X91.153 Y68.915 E0.01924
G1 X90.661 Y68.704 E0.02938
G1 X90.149 Y68.288 E0.0362
G1 X89.514 Y67.377 E0.06094
G1 X89.31 Y67.123 E0.01788
G1 X89.346 Y67.453 E0.01822
G1 X89.539 Y68.52 E0.05951
G1 X89.528 Y68.815 E0.0162
G1 X89.405 Y69.412 E0.03345
G1 X89.199 Y69.823 E0.02523
G1 X88.831 Y70.26 E0.03135
G1 X88.404 Y70.571 E0.02899
G1 X87.674 Y70.928 E0.0446
G1 X87.175 Y71.059 E0.02831
G1 X86.607 Y71.043 E0.03118
G1 X86.381 Y71 E0.01263
G1 X85.71 Y70.696 E0.04043
G1 X85.467 Y70.526 E0.01628
G1 X84.734 Y69.719 E0.05983
G1 X84.498 Y69.493 E0.01793
G1 X84.579 Y69.815 E0.01822
G1 X84.915 Y70.867 E0.06061
G1 X84.932 Y71.537 E0.03678
G1 X84.769 Y72.14 E0.03428
G1 X84.68 Y72.326 E0.01132
G1 X84.254 Y72.892 E0.03888
G1 X83.332 Y73.513 E0.06101
G1 X82.76 Y73.693 E0.03291
G1 X82.487 Y73.734 E0.01515
G1 X81.812 Y73.679 E0.03717
G1 X81.155 Y73.386 E0.03948
G1 X80.304 Y72.662 E0.06132
G1 X80.038 Y72.468 E0.01807
G1 X80.16 Y72.781 E0.01844
G1 X80.624 Y73.764 E0.05965
G1 X80.686 Y74.067 E0.01697
G1 X80.728 Y74.621 E0.03049
G1 X80.636 Y75.112 E0.02741
G1 X80.409 Y75.591 E0.02909
G1 X80.134 Y75.969 E0.02565
